luts/bluecinema.cube
LUT_3D_SIZE 16
0.014622 0.039092 0.037517
0.033531 0.046562 0.045859
0.072216 0.048455 0.050293
0.145947 0.046035 0.052334
0.229210 0.041324 0.052889
0.302539 0.039262 0.055429
0.366185 0.036790 0.057214
0.425124 0.033890 0.058417
0.483905 0.030472 0.059248
0.543731 0.026557 0.059763
0.603889 0.022192 0.059969
0.663622 0.017470 0.059877
0.721929 0.012415 0.059424
0.779220 0.006983 0.058520
0.835424 0.001163 0.057017
0.890122 0.000000 0.056708
0.021822 0.068968 0.051448
0.040413 0.066850 0.052871
0.071496 0.066821 0.048761
0.144851 0.065824 0.050299
0.226430 0.061763 0.049278
0.300316 0.060528 0.052016
0.364297 0.058056 0.053969
0.423547 0.055053 0.055297
0.482263 0.051880 0.056144
0.542162 0.048596 0.056616
0.602357 0.045120 0.056754
0.662162 0.041490 0.056522
0.720531 0.037696 0.055890
0.777756 0.033741 0.054793
0.833664 0.029613 0.052957
0.888455 0.026296 0.052671
0.026515 0.114230 0.063893
0.036699 0.114682 0.063294
0.098291 0.105891 0.065238
0.145852 0.112587 0.048743
0.217749 0.112521 0.037318
0.291248 0.108967 0.039034
0.357603 0.106044 0.043553
0.418376 0.102703 0.046426
0.477722 0.099748 0.047916
0.538027 0.097165 0.048662
0.598453 0.094613 0.048920
0.658454 0.091945 0.048743
0.716978 0.089117 0.048121
0.774222 0.086132 0.046964
0.830182 0.083008 0.044982
0.885137 0.080294 0.045343
0.033927 0.180281 0.082421
0.045401 0.180614 0.082025
0.081763 0.181618 0.078750
0.204408 0.161908 0.079150
0.233273 0.169143 0.046154
0.283257 0.161417 0.028334
0.343903 0.160029 0.025086
0.406803 0.155853 0.028962
0.468692 0.152422 0.032809
0.531002 0.149835 0.035832
0.592626 0.147744 0.037617
0.653154 0.145701 0.038282
0.712145 0.143544 0.038049
0.769792 0.141180 0.037092
0.826035 0.138576 0.034892
0.880936 0.136315 0.037072
0.045507 0.251203 0.105691
0.057190 0.251476 0.105354
0.095828 0.252377 0.103837
0.161026 0.251629 0.097300
0.315019 0.220913 0.091987
0.340566 0.221714 0.067754
0.349617 0.208989 0.025650
0.397484 0.207445 0.015791
0.454885 0.205223 0.013338
0.518414 0.202515 0.016265
0.581665 0.200367 0.018956
0.644163 0.198271 0.021608
0.704672 0.196109 0.023312
0.763718 0.193903 0.023700
0.820501 0.191741 0.024623
0.875892 0.189664 0.027432
0.058729 0.312934 0.127855
0.069363 0.313115 0.127585
0.106806 0.313747 0.126654
0.161656 0.314695 0.123158
0.244236 0.309426 0.115866
0.411225 0.273361 0.103609
0.435440 0.275251 0.087245
0.414140 0.260098 0.023641
0.457068 0.252220 0.010379
0.508220 0.253214 0.001298
0.567977 0.252388 0.000000
0.631310 0.250260 0.000817
0.692873 0.248171 0.002364
0.753034 0.245777 0.004371
0.811443 0.243533 0.009366
0.868106 0.241187 0.013908
0.072560 0.367264 0.148326
0.081921 0.367509 0.148111
0.116605 0.368064 0.147453
0.168345 0.368871 0.145577
0.225409 0.369419 0.140009
0.335694 0.355786 0.130447
0.495804 0.319509 0.112844
0.510403 0.322856 0.091650
0.486184 0.311614 0.026657
0.520712 0.298060 0.005070
0.567834 0.299194 0.000000
0.620609 0.300595 0.000000
0.679300 0.299569 0.000000
0.739956 0.297126 0.000000
0.798837 0.294766 0.000000
0.856627 0.292149 0.000000
0.087343 0.418355 0.168099
0.095599 0.418561 0.167925
0.127313 0.419032 0.167368
0.175221 0.419731 0.166270
0.227297 0.420741 0.163177
0.288303 0.419981 0.155857
0.428915 0.396429 0.143380
0.575000 0.362617 0.120353
0.582640 0.369608 0.092556
0.581323 0.356863 0.045584
0.586578 0.348405 0.000000
0.629990 0.344056 0.000000
0.677283 0.346319 0.000000
0.728774 0.346902 0.000000
0.785275 0.345309 0.000000
0.843674 0.342498 0.000000
0.103932 0.469460 0.188394
0.111356 0.469590 0.188274
0.140105 0.469989 0.187812
0.183941 0.470707 0.186990
0.233640 0.471537 0.185101
0.285769 0.472399 0.180468
0.353719 0.469488 0.172471
0.525615 0.435174 0.158159
0.654102 0.405740 0.127166
0.656158 0.417380 0.094673
0.677958 0.405428 0.071280
0.650813 0.402220 0.000000
0.692061 0.389679 0.000000
0.735536 0.390271 0.000000
0.782003 0.391745 0.000000
0.832349 0.391544 0.000000
0.122950 0.521976 0.209859
0.129724 0.522080 0.209756
0.155107 0.522486 0.209303
0.195177 0.523050 0.208735
0.242439 0.523877 0.207538
0.292157 0.524894 0.204636
0.345884 0.525120 0.198663
0.423080 0.519337 0.191218
0.625865 0.473945 0.176395
0.731954 0.450825 0.139591
0.728692 0.466000 0.101401
0.768565 0.457061 0.096548
0.725300 0.452572 0.010719
0.754235 0.437965 0.000000
0.793733 0.433171 0.000000
0.836911 0.434755 0.000000
0.144038 0.575039 0.232242
0.149821 0.575173 0.232157
0.171975 0.575468 0.231774
0.208347 0.576050 0.231246
0.253000 0.576743 0.230381
0.301079 0.577592 0.228413
0.350651 0.578565 0.224387
0.407942 0.577864 0.217159
0.495669 0.568661 0.211394
0.723044 0.513707 0.192735
0.810523 0.496404 0.152194
0.800277 0.514212 0.108226
0.852678 0.507067 0.117199
0.814494 0.496756 0.035010
0.814315 0.488494 0.000000
0.852551 0.477029 0.000000
0.164846 0.627912 0.254707
0.169817 0.628049 0.254599
0.189228 0.628321 0.254260
0.222426 0.628882 0.253762
0.264356 0.629515 0.253069
0.310682 0.630384 0.251709
0.358714 0.631283 0.248886
0.409140 0.631930 0.243618
0.471387 0.629731 0.235694
0.576061 0.615501 0.228723
0.813548 0.555125 0.203706
0.888217 0.541830 0.164859
0.870427 0.561685 0.114908
0.936827 0.554766 0.128331
0.909275 0.539893 0.064521
0.874150 0.539522 0.000000
0.185011 0.679819 0.276839
0.189410 0.679880 0.276774
0.206597 0.680152 0.276462
0.236834 0.680527 0.275953
0.276176 0.681178 0.275368
0.320572 0.681919 0.274307
0.367360 0.682900 0.272272
0.415293 0.683799 0.268556
0.467552 0.683969 0.262151
0.535892 0.679858 0.254161
0.662595 0.658825 0.244364
0.897003 0.597447 0.207816
0.989932 0.586392 0.177340
0.956081 0.607842 0.122040
1.029912 0.600972 0.134765
1.030263 0.586170 0.092406
0.204809 0.730884 0.298703
0.208631 0.731028 0.298645
0.223996 0.731165 0.298322
0.251530 0.731479 0.297934
0.288262 0.731954 0.297384
0.330632 0.732801 0.296513
0.376153 0.733531 0.295002
0.422794 0.734604 0.292233
0.470994 0.735388 0.287500
0.526153 0.734490 0.280310
0.601030 0.728568 0.272845
0.750378 0.700119 0.259709
1.010566 0.639151 0.210667
1.092104 0.630321 0.189648
1.052594 0.652777 0.130882
1.120268 0.646383 0.141104
0.224008 0.780824 0.320230
0.227395 0.780671 0.320152
0.241232 0.781163 0.319891
0.266386 0.781292 0.319514
0.300748 0.782016 0.318907
0.341099 0.782613 0.318279
0.385027 0.783522 0.317116
0.430644 0.784351 0.314999
0.477109 0.785409 0.311516
0.526438 0.785849 0.305773
0.585232 0.783804 0.297973
0.667479 0.775431 0.291920
0.836143 0.740450 0.273931
1.121722 0.679590 0.211082
1.191393 0.673114 0.201763
1.147751 0.695964 0.140739
0.242752 0.829988 0.341447
0.245813 0.830055 0.341312
0.258306 0.830074 0.341102
0.281301 0.830421 0.340759
0.313363 0.830876 0.340227
0.351755 0.831655 0.339692
0.394011 0.832358 0.338733
0.438551 0.833275 0.337077
0.483993 0.834038 0.334338
0.530594 0.835070 0.329923
0.581625 0.834907 0.323436
0.644616 0.831747 0.315391
0.733845 0.820803 0.311052
0.933122 0.778554 0.288888
1.228667 0.719409 0.212441
1.288293 0.715396 0.213736
0.017191 0.044668 0.063974
0.032505 0.049334 0.062973
0.072759 0.050866 0.066271
0.146645 0.048611 0.072348
0.229064 0.043229 0.075416
0.301819 0.040526 0.078262
0.365144 0.037717 0.079695
0.424046 0.034595 0.080635
0.482751 0.031078 0.081627
0.542629 0.027175 0.082806
0.602723 0.022861 0.083940
0.662488 0.018169 0.085002
0.720729 0.013146 0.085922
0.778026 0.007746 0.086734
0.834031 0.001880 0.087412
0.888716 0.000000 0.088576
0.021583 0.069539 0.065098
0.035023 0.069681 0.066091
0.072649 0.067757 0.067118
0.145658 0.063197 0.067279
0.227227 0.056136 0.065705
0.300654 0.053728 0.068002
0.364348 0.051264 0.069790
0.423384 0.048596 0.071237
0.481999 0.045647 0.072494
0.541843 0.042434 0.073661
0.601854 0.039060 0.074812
0.661545 0.035674 0.075961
0.719728 0.032389 0.077146
0.776602 0.029326 0.078491
0.832538 0.026583 0.080106
0.886853 0.024215 0.081958
0.023678 0.114524 0.075903
0.037467 0.114406 0.075475
0.091617 0.108447 0.077036
0.144416 0.113205 0.063195
0.219824 0.110896 0.054505
0.291952 0.105897 0.055522
0.357751 0.103137 0.059692
0.417927 0.100063 0.062322
0.477274 0.097255 0.064116
0.537445 0.094669 0.065569
0.597795 0.092197 0.066868
0.657660 0.089721 0.068113
0.715996 0.087159 0.069409
0.773034 0.084618 0.070811
0.828960 0.082127 0.072532
0.883598 0.079691 0.074487
0.032549 0.180178 0.094138
0.043075 0.180311 0.091456
0.081363 0.181452 0.088590
0.197884 0.164412 0.090765
0.229556 0.169864 0.059102
0.281614 0.160460 0.042215
0.344039 0.158410 0.040898
0.406820 0.154355 0.045308
0.468552 0.151016 0.049837
0.530459 0.148553 0.053516
0.591842 0.146602 0.056244
0.652307 0.144706 0.058291
0.710973 0.142739 0.060089
0.768457 0.140593 0.061913
0.824441 0.138476 0.063956
0.879412 0.136188 0.066127
0.045282 0.250980 0.116731
0.053169 0.251219 0.112533
0.094407 0.252124 0.111031
0.159122 0.251949 0.104519
0.308854 0.223473 0.104112
0.333515 0.221479 0.078905
0.347304 0.208332 0.040212
0.396358 0.206807 0.031527
0.454729 0.204343 0.030691
0.518057 0.201651 0.034670
0.581102 0.199566 0.038780
0.643430 0.197620 0.043129
0.703611 0.195708 0.047028
0.762300 0.193736 0.050516
0.818790 0.191767 0.053678
0.874320 0.189701 0.056453
0.058827 0.312653 0.137062
0.065464 0.312911 0.133320
0.104740 0.313562 0.132265
0.161069 0.314528 0.128885
0.241975 0.309961 0.121320
0.404364 0.275609 0.116244
0.429664 0.276048 0.101141
0.411941 0.259400 0.040170
0.455400 0.252050 0.027977
0.507308 0.252805 0.020323
0.567430 0.251845 0.019941
0.630690 0.249839 0.024078
0.691808 0.247893 0.028404
0.751825 0.245672 0.033510
0.810116 0.243470 0.038500
0.866679 0.241192 0.043019
0.072681 0.367099 0.155777
0.078772 0.367296 0.152964
0.114620 0.367906 0.152194
0.167707 0.368738 0.150354
0.225017 0.369319 0.144875
0.332026 0.356706 0.135527
0.488137 0.321980 0.127201
0.504904 0.324407 0.108864
0.482088 0.311880 0.045238
0.518294 0.297995 0.026080
0.566328 0.299113 0.015915
0.619503 0.300400 0.009704
0.678401 0.299301 0.010417
0.739060 0.296913 0.015069
0.797666 0.294648 0.019749
0.855478 0.292171 0.024829
0.087480 0.418226 0.174206
0.093310 0.418319 0.172264
0.125788 0.418921 0.171678
0.174660 0.419557 0.170523
0.227342 0.420530 0.167446
0.287938 0.420006 0.160170
0.425602 0.397403 0.148547
0.565816 0.365667 0.137813
0.576048 0.371624 0.113941
0.574864 0.358045 0.068642
0.583537 0.348533 0.026694
0.627683 0.344229 0.014344
0.675729 0.346237 0.005564
0.727661 0.346704 0.000828
0.784409 0.345107 0.002066
0.842605 0.342268 0.006634
0.104040 0.469309 0.193541
0.109991 0.469438 0.192335
0.139237 0.469896 0.191813
0.183736 0.470546 0.191007
0.233749 0.471418 0.189157
0.286048 0.472311 0.184587
0.353300 0.469570 0.176533
0.521880 0.436478 0.163709
0.642627 0.409433 0.149275
0.648467 0.419646 0.120233
0.670442 0.407114 0.096888
0.647730 0.402282 0.027831
0.689454 0.389949 0.014160
0.733523 0.390396 0.003845
0.780598 0.391667 0.000000
0.831463 0.391266 0.000000
0.123118 0.521880 0.214228
0.129175 0.521978 0.213622
0.154826 0.522332 0.213162
0.195221 0.522972 0.212526
0.242735 0.523757 0.211276
0.292552 0.524718 0.208368
0.346173 0.525069 0.202354
0.422689 0.519491 0.194737
0.622051 0.475188 0.181965
0.720965 0.454500 0.161555
0.721109 0.468328 0.126872
0.760769 0.459028 0.121732
0.721189 0.453192 0.037977
0.751220 0.438125 0.015410
0.791546 0.433492 0.002904
0.835196 0.434779 0.000000
0.144167 0.574937 0.236050
0.149258 0.575039 0.235483
0.171582 0.575344 0.235072
0.208353 0.575996 0.234494
0.253190 0.576603 0.233590
0.301380 0.577558 0.231620
0.350951 0.578439 0.227598
0.408090 0.577909 0.220362
0.494985 0.568955 0.214430
0.719173 0.514980 0.198720
0.799493 0.500066 0.174063
0.792916 0.516546 0.133565
0.845053 0.509276 0.142113
0.808807 0.497862 0.061729
0.811513 0.488752 0.016441
0.850017 0.477335 0.003133
0.164941 0.627902 0.258033
0.169339 0.627921 0.257540
0.188936 0.628123 0.257163
0.222321 0.628743 0.256601
0.264461 0.629437 0.255917
0.310907 0.630146 0.254522
0.359042 0.631227 0.251685
0.409322 0.631858 0.246417
0.471311 0.629751 0.238456
0.574817 0.615802 0.231515
0.809624 0.556446 0.210540
0.877506 0.545514 0.186542
0.863117 0.564042 0.140143
0.926557 0.557129 0.153367
0.900598 0.541353 0.090789
0.871329 0.539675 0.018559
0.185183 0.679610 0.279773
0.189002 0.679775 0.279366
0.206321 0.679984 0.278983
0.236677 0.680583 0.278517
0.276186 0.681123 0.277884
0.320700 0.681858 0.276817
0.367544 0.682679 0.274736
0.415569 0.683712 0.271028
0.467716 0.683762 0.264637
0.535685 0.679880 0.256558
0.661469 0.659062 0.246950
0.893165 0.598867 0.215890
0.975144 0.590060 0.198931
0.945881 0.610144 0.147114
1.019997 0.603255 0.159740
1.021242 0.587979 0.118300
0.204842 0.730748 0.301288
0.208187 0.731012 0.300957
0.223729 0.731056 0.300616
0.251365 0.731356 0.300135
0.288257 0.731928 0.299596
0.330794 0.732811 0.298763
0.376263 0.733478 0.297178
0.422986 0.734586 0.294451
0.471207 0.735361 0.289734
0.526235 0.734550 0.282449
0.600811 0.728665 0.274965
0.749211 0.700577 0.262100
1.003365 0.640969 0.220359
1.077923 0.633812 0.211113
1.042455 0.655063 0.155714
1.110460 0.648651 0.165964
0.224074 0.780770 0.322534
0.227099 0.780787 0.322277
0.240968 0.781032 0.321966
0.266226 0.781337 0.321541
0.300654 0.781823 0.320963
0.341118 0.782451 0.320297
0.385163 0.783383 0.319095
0.430727 0.784220 0.316956
0.477363 0.785219 0.313474
0.526576 0.785736 0.307780
0.585126 0.783806 0.299916
0.667056 0.775424 0.293794
0.834760 0.740700 0.276272
1.112652 0.681910 0.223804
1.177219 0.676661 0.223155
1.137828 0.698412 0.165324
0.242877 0.829917 0.343575
0.245517 0.829980 0.343212
0.258043 0.830143 0.342964
0.281133 0.830379 0.342555
0.313271 0.830825 0.342096
0.351763 0.831572 0.341383
0.394138 0.832277 0.340560
0.438599 0.833128 0.338866
0.484127 0.834118 0.336075
0.530831 0.835044 0.331744
0.581781 0.834865 0.325172
0.644562 0.831794 0.317112
0.733394 0.821072 0.312757
0.931382 0.778918 0.291094
1.216634 0.722349 0.229181
1.274194 0.718976 0.234999
0.017172 0.046828 0.105743
0.032746 0.048152 0.104580
0.069068 0.057434 0.102636
0.148791 0.052852 0.116460
0.232423 0.050554 0.125162
0.303369 0.046673 0.129579
0.365174 0.042234 0.130450
0.423168 0.038014 0.130673
0.481215 0.033743 0.131403
0.540577 0.029255 0.132834
0.600414 0.024507 0.134564
0.659835 0.019477 0.136378
0.718140 0.014204 0.138085
0.774926 0.008592 0.139692
0.830888 0.002480 0.141253
0.885601 0.000000 0.142904
0.013952 0.069799 0.100149
0.032135 0.068150 0.106523
0.070329 0.073479 0.103835
0.148765 0.069594 0.115127
0.231825 0.065638 0.122489
0.302036 0.060362 0.125087
0.364015 0.055951 0.125624
0.422093 0.052102 0.125828
0.480178 0.048399 0.126564
0.539644 0.044680 0.127930
0.599354 0.040985 0.129618
0.658869 0.037341 0.131419
0.717055 0.033876 0.133126
0.773844 0.030658 0.134843
0.829470 0.027802 0.136581
0.884151 0.025424 0.138406
0.024024 0.115540 0.105694
0.036050 0.115417 0.106357
0.074898 0.115206 0.108126
0.146421 0.108742 0.106617
0.226128 0.099684 0.103331
0.295477 0.093015 0.101727
0.359290 0.090462 0.103471
0.418570 0.087843 0.104994
0.477241 0.085019 0.106436
0.537061 0.082088 0.107878
0.597167 0.079027 0.109306
0.656763 0.075945 0.110773
0.715014 0.072961 0.112295
0.772193 0.070156 0.113897
0.827951 0.067556 0.115653
0.882396 0.065154 0.117534
0.026712 0.178659 0.140212
0.036898 0.179669 0.134434
0.077072 0.180568 0.120142
0.180155 0.171008 0.121826
0.225019 0.167019 0.097619
0.281020 0.156882 0.082272
0.346154 0.151401 0.084762
0.408478 0.147733 0.089715
0.469155 0.144745 0.093680
0.530155 0.142428 0.096520
0.590958 0.140336 0.098666
0.651234 0.138227 0.100625
0.709856 0.136022 0.102485
0.767100 0.133738 0.104427
0.823178 0.131487 0.106423
0.878073 0.129153 0.108519
0.026210 0.250921 0.152652
0.039812 0.251338 0.148008
0.083244 0.251336 0.136389
0.152761 0.252535 0.131248
0.292810 0.230176 0.135399
0.310015 0.221599 0.102865
0.340900 0.205794 0.076422
0.394141 0.203579 0.070507
0.455430 0.200140 0.073323
0.518324 0.197548 0.077643
0.581217 0.195410 0.082302
0.642956 0.193478 0.086596
0.702943 0.191628 0.090213
0.761011 0.189644 0.093364
0.817578 0.187714 0.096130
0.872794 0.185722 0.098670
0.046414 0.312598 0.165996
0.057919 0.312635 0.163556
0.092102 0.312843 0.153125
0.157597 0.313848 0.150224
0.233551 0.311976 0.141668
0.387457 0.281030 0.146423
0.411605 0.276027 0.130174
0.405336 0.255732 0.077025
0.450858 0.250684 0.066091
0.505530 0.250454 0.060485
0.567518 0.248802 0.062460
0.630333 0.246813 0.066922
0.691517 0.244837 0.071609
0.751301 0.242685 0.076742
0.809084 0.240575 0.081492
0.865492 0.238375 0.085698
0.066496 0.366764 0.180828
0.075454 0.366868 0.179095
0.102809 0.367318 0.169756
0.163110 0.368105 0.167927
0.222932 0.369061 0.162817
0.317915 0.360303 0.153633
0.471513 0.327358 0.157727
0.493208 0.326672 0.143921
0.471663 0.310529 0.079771
0.512839 0.296728 0.064432
0.562893 0.297917 0.055348
0.618059 0.298409 0.050629
0.677938 0.296900 0.052731
0.738456 0.294546 0.057606
0.797454 0.292320 0.062276
0.854700 0.289914 0.067498
0.084702 0.417793 0.196125
0.092168 0.417859 0.194883
0.115233 0.418284 0.186698
0.169852 0.419091 0.185403
0.225801 0.420025 0.182428
0.285687 0.420028 0.175256
0.413257 0.400861 0.164970
0.549357 0.370968 0.168571
0.564648 0.374260 0.149344
0.560608 0.359332 0.101046
0.578104 0.346884 0.065380
0.623550 0.343646 0.053673
0.672959 0.345125 0.045449
0.726588 0.345106 0.041727
0.784050 0.343183 0.043870
0.842075 0.340543 0.048744
0.103024 0.468865 0.212870
0.109790 0.468977 0.212014
0.129970 0.469422 0.204813
0.178792 0.470080 0.203820
0.231743 0.470949 0.201859
0.285194 0.471931 0.197453
0.350624 0.469935 0.189100
0.508749 0.440395 0.178499
0.626506 0.414704 0.180038
0.637240 0.422702 0.155561
0.656696 0.408038 0.129516
0.642789 0.400701 0.066836
0.684629 0.389196 0.053152
0.730223 0.389804 0.043341
0.778262 0.390649 0.035959
0.830151 0.389961 0.033053
0.122948 0.521467 0.231302
0.129337 0.521538 0.230778
0.146711 0.521926 0.224425
0.190395 0.522534 0.223594
0.240291 0.523318 0.222245
0.291613 0.524320 0.219341
0.345263 0.524899 0.213464
0.419490 0.520101 0.205228
0.609629 0.479108 0.196428
0.705045 0.459807 0.192127
0.709895 0.471341 0.162103
0.747539 0.460689 0.154495
0.712995 0.453248 0.074543
0.746539 0.437347 0.054443
0.787814 0.433159 0.042275
0.832320 0.434244 0.033284
0.144268 0.574597 0.251102
0.149550 0.574661 0.250568
0.164416 0.575028 0.244929
0.203514 0.575553 0.244169
0.250424 0.576275 0.243170
0.300086 0.577187 0.241169
0.350426 0.578151 0.237202
0.406986 0.577841 0.229958
0.491702 0.569690 0.223327
0.707766 0.518670 0.214114
0.783987 0.505312 0.204463
0.782121 0.519553 0.168652
0.832894 0.511600 0.175660
0.798674 0.499070 0.097017
0.807024 0.487793 0.055727
0.845865 0.476974 0.042226
0.165159 0.627563 0.271350
0.169572 0.627676 0.270871
0.182460 0.627794 0.265788
0.217668 0.628421 0.265160
0.261536 0.629067 0.264321
0.309243 0.630000 0.262898
0.358280 0.630978 0.260050
0.408811 0.631730 0.254901
0.469982 0.629947 0.246745
0.570002 0.616930 0.239981
0.798936 0.560042 0.227653
0.862063 0.550582 0.216825
0.852673 0.567043 0.175149
0.911834 0.559868 0.188031
0.888871 0.542883 0.125188
0.866527 0.539180 0.057554
0.185340 0.679392 0.291665
0.189186 0.679529 0.291235
0.200419 0.679734 0.286688
0.232263 0.680318 0.286076
0.273164 0.680813 0.285369
0.318882 0.681577 0.284265
0.366540 0.682542 0.282197
0.415052 0.683441 0.278491
0.467092 0.683745 0.272127
0.534196 0.680056 0.263753
0.656163 0.660492 0.254719
0.882541 0.602474 0.235405
0.954267 0.595103 0.229043
0.931247 0.613311 0.181817
1.005823 0.606288 0.194336
1.006170 0.589429 0.152497
0.205103 0.730468 0.312014
0.208493 0.730542 0.311537
0.218447 0.730880 0.307569
0.247193 0.731243 0.306918
0.285295 0.731641 0.306276
0.328888 0.732407 0.305434
0.375109 0.733349 0.303862
0.422440 0.734213 0.301074
0.470858 0.735068 0.296436
0.525526 0.734628 0.289126
0.599176 0.728832 0.281281
0.744132 0.701810 0.269366
0.987092 0.644778 0.242029
1.057529 0.638870 0.241133
1.027753 0.658356 0.190040
1.096521 0.651542 0.200531
0.224311 0.780491 0.332254
0.227337 0.780594 0.331873
0.236207 0.780813 0.328144
0.262341 0.781236 0.327693
0.297779 0.781830 0.327070
0.339222 0.782458 0.326294
0.383962 0.783167 0.325061
0.430105 0.783928 0.322970
0.476997 0.784902 0.319380
0.526267 0.785470 0.313751
0.584351 0.783832 0.305869
0.665352 0.775825 0.299306
0.830135 0.742062 0.283333
1.094501 0.686298 0.248598
1.157332 0.681877 0.253011
1.122954 0.701707 0.199334
0.243055 0.829784 0.352336
0.245762 0.829713 0.351970
0.253768 0.829964 0.348729
0.277621 0.830177 0.348215
0.310536 0.830653 0.347631
0.349728 0.831472 0.346978
0.392803 0.832261 0.345887
0.437860 0.832983 0.344332
0.483705 0.833795 0.341594
0.530469 0.834946 0.337271
0.581302 0.834976 0.330719
0.643711 0.831961 0.322531
0.731739 0.821418 0.317932
0.924518 0.780420 0.297691
1.197095 0.727349 0.256684
1.254756 0.723773 0.264762
0.014611 0.045872 0.166772
0.034123 0.047531 0.164324
0.085621 0.053566 0.169145
0.140790 0.069135 0.161612
0.234982 0.053495 0.179919
0.306073 0.051622 0.181225
0.368044 0.049066 0.183112
0.425170 0.044688 0.184117
0.481925 0.039320 0.184935
0.540369 0.033845 0.186481
0.599489 0.028328 0.188560
0.658520 0.022709 0.190632
0.716289 0.016969 0.192623
0.772975 0.010993 0.194465
0.828822 0.004548 0.196262
0.883247 0.000000 0.197968
0.010792 0.070649 0.162578
0.027263 0.064930 0.166656
0.084395 0.071132 0.169293
0.141501 0.081750 0.162160
0.234572 0.069202 0.178604
0.305444 0.066877 0.179466
0.367532 0.064140 0.181225
0.424296 0.059514 0.181618
0.481045 0.054465 0.182055
0.539468 0.049660 0.183468
0.598614 0.045114 0.185247
0.657493 0.040859 0.187217
0.715151 0.036935 0.189065
0.771796 0.033369 0.190749
0.827328 0.030242 0.192450
0.881700 0.027535 0.194075
0.002029 0.127228 0.130491
0.012077 0.125267 0.139860
0.066556 0.110230 0.167179
0.144297 0.119555 0.164295
0.234014 0.111950 0.173114
0.303344 0.107296 0.172336
0.364465 0.102333 0.172304
0.420883 0.096700 0.171159
0.477786 0.091815 0.170978
0.536497 0.087457 0.171885
0.595840 0.083428 0.173261
0.655145 0.079673 0.174822
0.712829 0.076184 0.176448
0.769647 0.072959 0.178021
0.825253 0.070055 0.179679
0.879716 0.067390 0.181253
0.024182 0.182568 0.165244
0.035792 0.182455 0.165819
0.074182 0.182107 0.167359
0.151556 0.181522 0.169843
0.228716 0.170992 0.164792
0.292925 0.159970 0.158867
0.351438 0.152174 0.155618
0.410711 0.149699 0.157145
0.469667 0.147104 0.158615
0.529664 0.144305 0.160072
0.589900 0.141525 0.161638
0.649685 0.138690 0.163222
0.708011 0.135932 0.164804
0.765091 0.133281 0.166510
0.821090 0.130818 0.168310
0.875631 0.128473 0.170123
0.032605 0.245833 0.222866
0.043277 0.246949 0.217706
0.075948 0.250136 0.200070
0.152933 0.251761 0.182015
0.267198 0.240794 0.183643
0.293251 0.224907 0.154489
0.336387 0.208942 0.136019
0.395008 0.202259 0.135977
0.456737 0.199441 0.140549
0.519261 0.197295 0.145045
0.581176 0.195452 0.148712
0.642082 0.193619 0.151568
0.701277 0.191797 0.154093
0.758935 0.189856 0.156347
0.815144 0.187916 0.158604
0.870249 0.185827 0.160808
0.024651 0.310382 0.224095
0.035628 0.311186 0.219085
0.070549 0.313158 0.202879
0.156501 0.313045 0.194493
0.227861 0.313964 0.188123
0.363141 0.291426 0.194654
0.378455 0.275409 0.168391
0.393025 0.253098 0.131630
0.444693 0.251411 0.124497
0.504529 0.249847 0.124128
0.567787 0.247828 0.128327
0.630272 0.246117 0.132800
0.691193 0.244220 0.137619
0.750558 0.242318 0.142141
0.807728 0.240448 0.146063
0.863483 0.238483 0.149466
0.028682 0.366224 0.224973
0.041868 0.366677 0.221241
0.085987 0.367306 0.210878
0.161986 0.367205 0.207085
0.226575 0.368095 0.203353
0.302954 0.364940 0.193918
0.445626 0.335640 0.203899
0.472569 0.330231 0.193703
0.459534 0.306866 0.134755
0.504634 0.297573 0.122397
0.557872 0.298349 0.115269
0.616542 0.297864 0.113917
0.677746 0.295917 0.117950
0.737637 0.293885 0.122538
0.796198 0.291808 0.127478
0.853553 0.289532 0.132496
0.057123 0.417713 0.230665
0.068139 0.417940 0.228918
0.105371 0.418008 0.222868
0.169305 0.418220 0.220516
0.229500 0.418966 0.217914
0.287134 0.419646 0.211600
0.390083 0.407601 0.201513
0.524185 0.379157 0.214687
