luts/bluecinema.cube
LUT_3D_SIZE 6
0.014622 0.039092 0.037517
0.145947 0.046035 0.052334
0.366185 0.036790 0.057214
0.543731 0.026557 0.059763
0.721929 0.012415 0.059424
0.890122 0.000000 0.056708
0.033927 0.180281 0.082421
0.204408 0.161908 0.079150
0.343903 0.160029 0.025086
0.531002 0.149835 0.035832
0.712145 0.143544 0.038049
0.880936 0.136315 0.037072
0.072560 0.367264 0.148326
0.168345 0.368871 0.145577
0.495804 0.319509 0.112844
0.520712 0.298060 0.005070
0.679300 0.299569 0.000000
0.856627 0.292149 0.000000
0.122950 0.521976 0.209859
0.195177 0.523050 0.208735
0.345884 0.525120 0.198663
0.731954 0.450825 0.139591
0.725300 0.452572 0.010719
0.836911 0.434755 0.000000
0.185011 0.679819 0.276839
0.236834 0.680527 0.275953
0.367360 0.682900 0.272272
0.535892 0.679858 0.254161
0.989932 0.586392 0.177340
1.030263 0.586170 0.092406
0.242752 0.829988 0.341447
0.281301 0.830421 0.340759
0.394011 0.832358 0.338733
0.530594 0.835070 0.329923
0.733845 0.820803 0.311052
1.288293 0.715396 0.213736
0.014611 0.045872 0.166772
0.140790 0.069135 0.161612
0.368044 0.049066 0.183112
0.540369 0.033845 0.186481
0.716289 0.016969 0.192623
0.883247 0.000000 0.197968
0.024182 0.182568 0.165244
0.151556 0.181522 0.169843
0.351438 0.152174 0.155618
0.529664 0.144305 0.160072
0.708011 0.135932 0.164804
0.875631 0.128473 0.170123
0.028682 0.366224 0.224973
0.161986 0.367205 0.207085
0.445626 0.335640 0.203899
0.504634 0.297573 0.122397
0.677746 0.295917 0.117950
0.853553 0.289532 0.132496
0.111393 0.521102 0.258385
0.189999 0.521853 0.251837
0.347998 0.524308 0.242042
0.681020 0.467730 0.237877
0.700563 0.453119 0.129364
0.827927 0.434638 0.093814
0.183686 0.678946 0.312981
0.231367 0.679610 0.306723
0.368808 0.681867 0.302482
0.533190 0.680399 0.283819
0.922269 0.602709 0.274211
0.981575 0.591993 0.201842
0.243107 0.829195 0.369009
0.276851 0.829814 0.363996
0.394045 0.831679 0.361376
0.532351 0.834265 0.352534
0.729016 0.822081 0.332363
1.224552 0.731308 0.309458
0.004702 0.036280 0.349753
0.156612 0.044612 0.341486
0.354551 0.115395 0.334414
0.546390 0.045609 0.339979
0.719868 0.032116 0.346936
0.882890 0.013081 0.356080
0.000000 0.187984 0.294655
0.111011 0.159253 0.336823
0.357119 0.195962 0.336612
0.542668 0.170359 0.333771
0.715509 0.160736 0.339539
0.876822 0.146677 0.343235
0.017628 0.372600 0.339189
0.145523 0.371595 0.343704
0.373995 0.369917 0.350849
0.506653 0.322560 0.315802
0.686003 0.315667 0.320861
0.854457 0.309248 0.326124
0.021997 0.512395 0.430353
0.149192 0.519205 0.398345
0.376656 0.522211 0.378102
0.606522 0.493350 0.376520
0.662242 0.443869 0.287708
0.816280 0.441519 0.273143
0.052888 0.676844 0.428201
0.169995 0.679493 0.412397
0.389798 0.679786 0.414486
0.538811 0.680904 0.400226
0.843934 0.626572 0.410716
0.883938 0.599541 0.328769
0.189945 0.828514 0.453557
0.249905 0.829028 0.449518
0.410269 0.829737 0.455551
0.550410 0.831735 0.447874
0.718043 0.826506 0.424695
1.130670 0.754401 0.444859
0.000000 0.001562 0.507178
0.146555 0.043439 0.493624
0.367242 0.054491 0.504916
0.524249 0.160474 0.480454
0.724995 0.036319 0.502307
0.888494 0.023824 0.498250
0.000000 0.178882 0.474084
0.096506 0.156254 0.492470
0.364018 0.180553 0.504821
0.525616 0.219503 0.481674
0.722580 0.170689 0.498787
0.884560 0.164104 0.493594
0.000000 0.360875 0.342093
0.005791 0.346214 0.386822
0.315853 0.328322 0.470652
0.534021 0.377613 0.489079
0.716457 0.356490 0.495914
0.877127 0.347667 0.494702
0.007850 0.529623 0.486273
0.140687 0.528624 0.491217
0.371014 0.527140 0.498338
0.551641 0.525770 0.504544
0.666656 0.461596 0.452298
0.835852 0.455512 0.457494
0.043871 0.659587 0.643745
0.179625 0.667139 0.612092
0.374751 0.678032 0.565780
0.552831 0.680375 0.531581
0.781140 0.647840 0.527474
0.813033 0.580303 0.425308
0.020180 0.819400 0.630339
0.148990 0.824577 0.605248
0.361537 0.831436 0.573576
0.561476 0.830083 0.563875
0.709905 0.830085 0.546479
1.047516 0.774807 0.560462
0.000000 0.002117 0.666713
0.133335 0.014926 0.656732
0.350325 0.033815 0.648955
0.543705 0.130408 0.648230
0.694399 0.208834 0.631667
0.892885 0.028765 0.658517
0.000000 0.172572 0.642178
0.078992 0.150363 0.653467
0.335679 0.152514 0.640778
0.545299 0.199374 0.652051
0.695330 0.252523 0.632530
0.890948 0.171270 0.656259
0.000000 0.349899 0.558827
0.001788 0.337738 0.588413
0.303864 0.327293 0.633441
0.555976 0.369705 0.663910
0.700797 0.392538 0.637420
0.887298 0.359557 0.654335
0.000000 0.519582 0.473625
0.000000 0.513554 0.492048
0.194536 0.493955 0.530481
0.476119 0.467807 0.613285
0.710584 0.532497 0.646287
0.880486 0.509525 0.646466
0.006555 0.689792 0.639414
0.137137 0.688840 0.644089
0.367859 0.687435 0.651210
0.548914 0.685991 0.657303
0.730001 0.684964 0.663906
0.816003 0.603916 0.593391
0.071085 0.799705 0.863358
0.212470 0.807261 0.813781
0.401420 0.818512 0.769729
0.553236 0.828808 0.721935
0.729594 0.831019 0.688371
0.959183 0.797065 0.681921
0.000000 0.002598 0.822474
0.110945 0.000000 0.816260
0.347674 0.028442 0.800856
0.550368 0.039842 0.814185
0.703061 0.207316 0.782073
0.854756 0.256571 0.777509
0.000000 0.162637 0.800651
0.059516 0.141040 0.808643
0.330963 0.150353 0.792648
0.541160 0.168036 0.807903
0.704447 0.249756 0.784189
0.855554 0.290019 0.778235
0.000000 0.343698 0.742072
0.000000 0.334387 0.759784
0.291148 0.325378 0.788698
0.510324 0.327214 0.778362
0.714875 0.388450 0.793894
0.859060 0.412090 0.781475
0.000000 0.519204 0.598995
0.000000 0.514829 0.608671
0.167448 0.485862 0.709511
0.465561 0.467181 0.770420
0.727829 0.526131 0.815830
0.866000 0.544466 0.787863
0.000000 0.682345 0.564417
0.000000 0.680111 0.564747
0.166263 0.654822 0.646866
0.369747 0.629343 0.672209
0.637144 0.610030 0.748807
0.877511 0.689832 0.798403
0.005370 0.845982 0.786528
0.133648 0.844282 0.791363
0.365048 0.841908 0.798240
0.546197 0.839849 0.804143
0.727287 0.837567 0.810516
0.896798 0.835368 0.816268
