luts/honey.cube
LUT_3D_SIZE 33
0.0757763 0.0824903 0.094728
0.0761883 0.0825971 0.0947585
0.0776684 0.0830701 0.0948806
0.0813611 0.0841382 0.09514
0.086717 0.0851759 0.0955825
0.0931563 0.0855726 0.0958114
0.101457 0.0858167 0.0961318
0.11252 0.0853895 0.0966506
0.131258 0.0842908 0.097734
0.16347 0.0814527 0.0989548
0.219669 0.076463 0.102464
0.296513 0.0704356 0.10779
0.382452 0.0681468 0.112718
0.468956 0.0677958 0.116793
0.54609 0.0684367 0.119829
0.610483 0.0694133 0.122057
0.66392 0.0702678 0.125124
0.7122 0.0714427 0.128237
0.752163 0.0726787 0.131106
0.780026 0.0735485 0.133272
0.799878 0.0741283 0.134936
0.815763 0.0746777 0.136172
0.829465 0.0751812 0.13724
0.841611 0.0756237 0.138216
0.852796 0.076051 0.139025
0.862791 0.0764935 0.139742
0.871962 0.0770581 0.140398
0.880522 0.0775616 0.1411
0.888701 0.0781109 0.141741
0.896819 0.0786145 0.142367
0.90428 0.0790417 0.142947
0.90428 0.0790417 0.142947
0.90428 0.0790265 0.142947
0.0758373 0.0825513 0.094728
0.076112 0.0826123 0.0947585
0.0776379 0.0831006 0.0948806
0.0816205 0.0842908 0.0951858
0.0871595 0.0853895 0.0956283
0.093843 0.0858778 0.0958572
0.102068 0.0861982 0.0962081
0.112596 0.0859998 0.0967117
0.129503 0.0852369 0.0977035
0.15877 0.082948 0.0988785
0.209506 0.0787671 0.101717
0.284199 0.072755 0.106844
0.367132 0.0703136 0.111772
0.451225 0.0700084 0.115663
0.526772 0.0705272 0.119066
0.591959 0.0715038 0.121202
0.647486 0.0727398 0.123827
0.697154 0.0743114 0.127077
0.738659 0.0760357 0.129809
0.767803 0.0773938 0.132006
0.788388 0.078233 0.133577
0.805112 0.0790265 0.13492
0.819791 0.0797284 0.136004
0.832532 0.0803235 0.137087
0.84416 0.0809186 0.138003
0.854627 0.0814679 0.13875
0.864347 0.082063 0.139483
0.873472 0.0827039 0.140124
0.882048 0.0832837 0.140795
0.890455 0.0839094 0.141482
0.898634 0.0845197 0.142077
0.904326 0.085008 0.142473
0.904326 0.0849012 0.142489
0.0760662 0.082826 0.0948653
0.0762341 0.0829023 0.0948348
0.0771801 0.0832227 0.0948501
0.0810712 0.0844739 0.0951705
0.0863661 0.0859846 0.095613
0.0922255 0.0866102 0.0959029
0.0991379 0.0871901 0.0962081
0.10811 0.0873884 0.0966812
0.122332 0.0872206 0.0974136
0.147356 0.0856947 0.0987716
0.190433 0.0822156 0.100557
0.257939 0.0767834 0.105058
0.337667 0.0726635 0.109941
0.420905 0.0723278 0.113878
0.496956 0.0725261 0.117632
0.5635 0.0733654 0.120089
0.622721 0.0743267 0.122332
0.67509 0.0754101 0.125551
0.719676 0.0768597 0.128466
0.751949 0.0782025 0.130709
0.773907 0.0791333 0.132387
0.79176 0.0799878 0.133745
0.80734 0.080766 0.134951
0.821118 0.0814832 0.136004
0.833509 0.0821546 0.13695
0.844877 0.0828412 0.137804
0.855222 0.0834669 0.138643
0.864927 0.0841535 0.13933
0.874235 0.0849622 0.140078
0.883101 0.0856947 0.140703
0.891829 0.0864576 0.141375
0.900603 0.0872511 0.142077
0.904479 0.0875563 0.142336
0.0766308 0.0840467 0.0953994
0.0771801 0.0842145 0.0951553
0.0772869 0.0841993 0.0951247
0.0805524 0.0852522 0.0952621
0.0856031 0.0869764 0.0956741
0.090898 0.0882734 0.0960861
0.0970321 0.0890974 0.0963607
0.104417 0.0895094 0.0967575
0.116197 0.0894636 0.0973831
0.138033 0.0887465 0.0986343
0.174563 0.0858167 0.0998703
0.234974 0.080766 0.103517
0.313024 0.0753338 0.108385
0.394537 0.0740978 0.112673
0.471305 0.0740826 0.116243
0.539239 0.0746014 0.119158
0.600763 0.0754101 0.12134
0.656977 0.076112 0.124269
0.703578 0.0766918 0.127352
0.738216 0.0776074 0.129717
0.762112 0.0786297 0.131502
0.781079 0.0794537 0.132921
0.797635 0.0802777 0.134188
0.81236 0.0810254 0.135348
0.825528 0.0816968 0.136294
0.837705 0.082414 0.137331
0.848966 0.0830854 0.13814
0.859464 0.0837415 0.138964
0.8692 0.0845197 0.139651
0.87863 0.085359 0.140368
0.887999 0.0860761 0.1411
0.897765 0.0870222 0.141863
0.904479 0.0875563 0.142336
0.0776532 0.0863355 0.0963149
0.0787366 0.0865339 0.0957656
0.0785992 0.0863203 0.0956588
0.080766 0.0869612 0.095552
0.0852979 0.0882582 0.0958114
0.0903792 0.0899977 0.0961929
0.0959335 0.0911116 0.0965591
0.102785 0.0917067 0.0969863
0.113283 0.0916762 0.0975204
0.132677 0.0912184 0.0985122
0.166079 0.0889143 0.0996872
0.22179 0.084184 0.102693
0.298909 0.0783093 0.107424
0.379507 0.0760204 0.111955
0.456474 0.0757458 0.115343
0.524697 0.0761273 0.118532
0.587488 0.0769513 0.12076
0.646387 0.0776989 0.12343
0.695064 0.0781872 0.126665
0.731258 0.0787213 0.129137
0.756466 0.0793011 0.130983
0.776242 0.0798199 0.132479
0.793545 0.0803845 0.133837
0.80914 0.0809949 0.135088
0.823011 0.0815747 0.136126
0.835691 0.0822919 0.137163
0.847547 0.0830091 0.138033
0.858778 0.0836957 0.138918
0.869383 0.084535 0.139666
0.879499 0.0854353 0.140414
0.889372 0.0862898 0.141192
0.899428 0.0872969 0.142
0.904494 0.0878157 0.142321
0.0792401 0.0901503 0.0975357
0.0805982 0.0899519 0.0965896
0.0801862 0.0890669 0.0963455
0.0812543 0.08925 0.0960861
0.0854963 0.0902113 0.0960708
0.0902571 0.0914015 0.0963455
0.0957046 0.0930343 0.0968185
0.102129 0.0937667 0.0972457
0.111971 0.0937362 0.097734
0.130129 0.0934462 0.0985885
0.161868 0.0915694 0.0998093
0.214679 0.0872969 0.10219
0.291279 0.081239 0.106798
0.372168 0.0784924 0.111467
0.450401 0.0779126 0.114855
0.519371 0.0780804 0.118212
0.582803 0.0787671 0.120439
0.643 0.0796521 0.123064
0.692699 0.0802777 0.126436
0.730236 0.0808881 0.128862
0.756329 0.0815137 0.13077
0.776806 0.082063 0.132326
0.794583 0.0825666 0.1337
0.81091 0.0832837 0.135042
0.825589 0.084062 0.13611
0.839002 0.0849622 0.137179
0.851392 0.0858015 0.138125
0.862791 0.0868696 0.138994
0.873762 0.0881514 0.139742
0.88426 0.0894942 0.14049
0.894514 0.0908675 0.141268
0.904356 0.0923934 0.141924
0.904372 0.0931411 0.141878
0.0808423 0.0950179 0.0990311
0.0825208 0.0948501 0.0982528
0.0820172 0.0930343 0.0972763
0.082002 0.0922866 0.0968643
0.0857862 0.0930953 0.0967422
0.0904097 0.0938888 0.09691
0.095613 0.09514 0.0972305
0.101991 0.0959182 0.0975204
0.111315 0.0959335 0.0980087
0.128862 0.0957656 0.0988022
0.159854 0.094255 0.100038
0.211337 0.0902266 0.101991
0.287602 0.0843824 0.106432
0.36878 0.0813916 0.111147
0.448005 0.0809339 0.114504
0.518547 0.0810712 0.117968
0.583642 0.08159 0.120272
0.644862 0.0824292 0.122988
0.695369 0.0831617 0.126329
0.733684 0.0839857 0.128862
0.76051 0.0849622 0.130816
0.78204 0.0860151 0.132464
0.800748 0.0870069 0.133928
0.816892 0.0881514 0.135103
0.831571 0.089189 0.136172
0.845197 0.0904707 0.13724
0.857832 0.0918898 0.138186
0.86952 0.0938277 0.138888
0.880552 0.0955978 0.139574
0.891157 0.0974136 0.140337
0.901473 0.099382 0.141039
0.904173 0.100862 0.141131
0.904173 0.101778 0.141039
0.0826734 0.103288 0.104311
0.0844587 0.101289 0.101656
0.0842451 0.0990005 0.100237
0.0835737 0.0977035 0.0996414
0.0860761 0.0974441 0.0986954
0.090547 0.0979477 0.0982681
0.0953689 0.0982071 0.0980545
0.101717 0.0985733 0.0978866
0.111009 0.0985885 0.0983291
0.128374 0.0985885 0.0991379
0.158373 0.0974899 0.100359
0.208957 0.0938125 0.101884
0.286244 0.0881514 0.106172
0.368856 0.0854047 0.110964
0.449653 0.0852827 0.11426
0.521935 0.0856031 0.117678
0.58793 0.0864729 0.120119
0.650874 0.087541 0.122942
0.7028 0.0885634 0.12639
0.742 0.0896315 0.129076
0.768765 0.090837 0.131014
0.790326 0.0922866 0.132631
0.808957 0.0937362 0.13402
0.825101 0.0954604 0.135134
0.839796 0.0970474 0.136217
0.853223 0.0987869 0.137194
0.865782 0.101579 0.137911
0.877424 0.104692 0.138415
0.888609 0.107652 0.138994
0.899443 0.110201 0.139757
0.903868 0.112428 0.139925
0.903883 0.114107 0.139834
0.903899 0.115969 0.139742
0.0844129 0.11104 0.108385
0.0863661 0.108324 0.104799
0.0870375 0.105394 0.102876
0.0860304 0.104005 0.102327
0.0866407 0.10367 0.102098
0.0903487 0.103471 0.100618
0.0950027 0.103349 0.0992752
0.100969 0.102983 0.0985733
0.110002 0.102358 0.0986801
0.127321 0.102419 0.0995193
0.157122 0.101869 0.100725
0.207736 0.0986343 0.1019
0.285527 0.0932479 0.105928
0.371389 0.0910201 0.110826
0.454841 0.0918898 0.114061
0.530205 0.0927901 0.117418
0.59736 0.0944076 0.119982
0.660304 0.0961776 0.122866
0.712535 0.0977035 0.126314
0.752194 0.0993668 0.129046
0.778698 0.101259 0.131014
0.799847 0.103166 0.132494
0.817823 0.105348 0.133745
0.8336 0.10779 0.134798
0.848249 0.110323 0.135744
0.861677 0.113329 0.136614
0.873991 0.116777 0.137179
0.885756 0.120287 0.13785
0.897398 0.124193 0.13872
0.903899 0.127504 0.139208
0.903914 0.129671 0.139162
0.903944 0.132418 0.139071
0.904036 0.135698 0.138933
0.0863203 0.120836 0.112566
0.088365 0.117464 0.108095
0.0907759 0.112932 0.103838
0.0896162 0.111391 0.103761
0.0890364 0.110826 0.103777
0.0902113 0.111055 0.103182
0.0938582 0.111376 0.101671
0.0994888 0.111452 0.100343
0.107866 0.110857 0.0998093
0.124041 0.108659 0.100023
0.154055 0.108522 0.101106
0.205051 0.106477 0.1019
0.286076 0.101701 0.105638
0.374533 0.0994736 0.110628
0.460304 0.101656 0.113771
0.537102 0.10341 0.116884
0.605509 0.105943 0.119661
0.669062 0.108629 0.122713
0.721721 0.110857 0.125902
0.760327 0.113008 0.12871
0.786999 0.115434 0.130602
0.807965 0.11812 0.132021
0.825681 0.121065 0.13312
0.841413 0.124117 0.134173
0.855848 0.127794 0.135119
0.869337 0.133028 0.135866
0.882033 0.138277 0.136599
0.894133 0.143709 0.137316
0.904112 0.149355 0.137926
0.904265 0.153094 0.137804
0.904448 0.15729 0.137697
0.904631 0.161456 0.137621
0.904997 0.166857 0.137514
0.0890059 0.134829 0.119036
0.0908522 0.131151 0.113939
0.0942245 0.125353 0.107271
0.0951247 0.122393 0.105135
0.0945754 0.122255 0.105272
0.094667 0.12314 0.105516
0.0953078 0.124956 0.105852
0.0975662 0.126772 0.105348
0.105882 0.127016 0.103578
0.121401 0.125154 0.102327
0.150103 0.120073 0.102296
0.200793 0.118898 0.102251
0.282811 0.115801 0.104707
0.374853 0.112184 0.10985
0.464271 0.114488 0.11342
0.542657 0.117601 0.116304
0.612482 0.121416 0.119295
0.675425 0.125109 0.122347
0.727382 0.127977 0.125368
0.766171 0.130846 0.128008
0.792859 0.134081 0.129946
0.813931 0.138827 0.131243
0.832044 0.144518 0.132235
0.848219 0.149691 0.133272
0.862638 0.15668 0.134005
0.87631 0.165698 0.134585
0.889418 0.175494 0.135164
0.902327 0.187045 0.135866
0.907057 0.1953 0.13611
0.907835 0.202945 0.136141
0.908568 0.210239 0.136248
0.909239 0.217273 0.136416
0.910018 0.224521 0.136614
0.0948348 0.156542 0.128038
0.0954757 0.152438 0.123766
0.0986038 0.145647 0.114977
0.10367 0.140627 0.108843
0.104234 0.141451 0.108827
0.105058 0.144183 0.109621
0.10634 0.14786 0.110658
0.107973 0.152331 0.111925
0.109895 0.157351 0.11342
0.120012 0.159014 0.111742
0.149325 0.155673 0.107912
0.198062 0.145251 0.104128
0.280049 0.143404 0.10309
0.374548 0.140169 0.106828
0.46804 0.141405 0.1122
0.550072 0.144503 0.115511
0.620478 0.149508 0.118868
0.68246 0.154269 0.122103
0.734066 0.159136 0.125139
0.772671 0.165438 0.12723
0.800488 0.174151 0.128695
0.822324 0.185595 0.129671
0.842023 0.199176 0.13048
0.859159 0.212406 0.131197
0.874464 0.22565 0.132097
0.888884 0.238987 0.133135
0.9019 0.252369 0.134127
0.914397 0.264179 0.135073
0.915526 0.272267 0.13521
0.915908 0.280385 0.135409
0.91664 0.288319 0.135668
0.917815 0.29633 0.135958
0.918776 0.303899 0.136248
0.104631 0.189624 0.143526
0.104051 0.185748 0.140749
0.1075 0.181064 0.130938
0.113542 0.174807 0.121126
0.1205 0.174289 0.118029
0.122591 0.179232 0.119478
0.125872 0.186221 0.121736
0.129396 0.193896 0.124224
0.132952 0.201801 0.126833
0.13611 0.209705 0.129656
0.150317 0.212024 0.126513
0.199161 0.207996 0.117662
0.279469 0.194598 0.102678
0.381537 0.196124 0.10161
0.477424 0.198825 0.107225
0.559808 0.20087 0.111513
0.630564 0.207202 0.11577
0.691829 0.215213 0.119493
0.744823 0.226307 0.122591
0.784482 0.237369 0.125017
0.81323 0.250904 0.126574
0.836011 0.2654 0.127962
0.855573 0.279866 0.129168
0.873213 0.294972 0.1299
0.887816 0.308339 0.131075
0.901854 0.321065 0.132235
0.9149 0.334279 0.133089
0.925719 0.34641 0.133196
0.927459 0.354406 0.133135
0.928588 0.362005 0.133028
0.929458 0.36936 0.133013
0.930495 0.376394 0.133196
0.931487 0.383276 0.133654
0.120684 0.239765 0.168795
0.119677 0.236774 0.167269
0.12372 0.233738 0.157671
0.130785 0.229084 0.14551
0.145312 0.226841 0.136477
0.154406 0.232609 0.136156
0.15996 0.242481 0.139605
0.167178 0.255238 0.144366
0.17438 0.268208 0.149462
0.180148 0.279622 0.154314
0.184298 0.28957 0.15906
0.209293 0.290959 0.151675
0.281483 0.289723 0.135103
0.384009 0.277714 0.108934
0.493156 0.282963 0.105135
0.583154 0.290806 0.108354
0.652491 0.299916 0.112581
0.711269 0.310338 0.116289
0.762905 0.321172 0.119631
0.80235 0.33286 0.122118
0.831312 0.345815 0.123949
0.853651 0.358999 0.125307
0.873274 0.371817 0.125887
0.88896 0.384665 0.127062
0.90309 0.397528 0.128374
0.916426 0.409903 0.129091
0.927108 0.420768 0.129396
0.935515 0.43061 0.129686
0.935943 0.43714 0.1299
0.935851 0.443854 0.130602
0.935515 0.450324 0.131395
0.935317 0.456825 0.131914
0.935378 0.462669 0.132372
0.145876 0.308309 0.207263
0.145129 0.306371 0.206104
0.14995 0.303471 0.195514
0.160708 0.302205 0.182879
0.179858 0.302373 0.170871
0.200641 0.308202 0.16556
0.213535 0.321309 0.169116
0.223331 0.336599 0.175433
0.232959 0.352605 0.182559
0.241047 0.366964 0.189502
0.246998 0.379889 0.196902
0.251148 0.391409 0.204288
0.301503 0.390967 0.183978
0.392493 0.392752 0.157076
0.496757 0.382757 0.1308
0.592752 0.389456 0.122942
0.664378 0.399878 0.121431
0.726558 0.412131 0.122103
0.778897 0.422812 0.123507
0.815244 0.429587 0.124712
0.842237 0.438834 0.125124
0.862867 0.45037 0.126116
0.879789 0.461265 0.127581
0.893751 0.47158 0.129137
0.905959 0.482811 0.130251
0.917739 0.4934 0.13138
0.928298 0.502724 0.132799
0.935851 0.511391 0.134157
0.936355 0.517357 0.135134
0.936889 0.523262 0.136095
0.936934 0.529198 0.13756
0.936889 0.53518 0.139116
0.936782 0.541131 0.140688
0.182895 0.389868 0.258946
0.183169 0.390478 0.259373
0.190799 0.38912 0.247364
0.204547 0.39086 0.234852
0.227146 0.391943 0.218875
0.252995 0.399115 0.210285
0.27541 0.411276 0.209613
0.290303 0.427756 0.216663
0.302327 0.444205 0.225055
0.312825 0.45893 0.233326
0.320714 0.471931 0.24181
0.327077 0.484703 0.251057
0.338216 0.492683 0.25362
0.418296 0.489952 0.20911
0.509422 0.488991 0.172671
0.595712 0.482094 0.148592
0.666209 0.485695 0.140002
0.725872 0.4981 0.136934
0.778302 0.507546 0.135088
0.816556 0.514534 0.134997
0.844343 0.522911 0.135851
0.864759 0.531319 0.136767
0.880644 0.538933 0.138659
0.894972 0.547448 0.140322
0.907912 0.556069 0.142245
0.919493 0.564752 0.144381
0.930495 0.57351 0.146578
0.937438 0.580941 0.148547
0.937804 0.587137 0.150195
0.938231 0.593545 0.152087
0.938338 0.599298 0.15404
0.938003 0.604669 0.156176
0.937774 0.610117 0.158282
0.225193 0.475273 0.32221
0.226383 0.477577 0.323949
0.2383 0.478508 0.310262
0.2551 0.479469 0.294255
0.286152 0.483101 0.274128
0.316426 0.489738 0.262409
0.345495 0.500084 0.257267
0.364843 0.513985 0.259846
0.377493 0.529397 0.267414
0.388113 0.542901 0.275151
0.397055 0.555459 0.283558
0.402533 0.565164 0.29247
0.405966 0.573861 0.30164
0.448844 0.573587 0.272725
0.529458 0.571679 0.220493
0.608087 0.568582 0.18378
0.672068 0.566339 0.164858
0.729564 0.568765 0.157641
0.779934 0.574334 0.154696
0.818357 0.580209 0.153048
0.845243 0.587015 0.153353
0.866163 0.595163 0.154574
0.882963 0.602686 0.156527
0.897368 0.609873 0.157961
0.909285 0.617288 0.159762
0.921065 0.625376 0.162219
0.931563 0.633829 0.164324
0.937667 0.64097 0.166537
0.937987 0.647028 0.168719
0.938293 0.652598 0.170794
0.938552 0.658137 0.172992
0.938613 0.663401 0.175021
0.938598 0.668193 0.176989
0.27216 0.559075 0.387625
0.274037 0.561944 0.390051
0.291936 0.563653 0.373892
0.313771 0.565713 0.355978
0.350042 0.568032 0.331151
0.383368 0.572808 0.315587
0.415122 0.580453 0.305623
0.440436 0.59089 0.301976
0.454337 0.604013 0.310216
0.464332 0.614588 0.31783
0.471916 0.624109 0.325216
0.476738 0.631815 0.333455
0.47985 0.638956 0.342992
0.485588 0.642878 0.345586
0.554742 0.638361 0.280888
0.622003 0.638361 0.233845
0.680797 0.63566 0.202075
0.733288 0.634638 0.183871
0.782162 0.635813 0.176761
0.821225 0.637964 0.173129
0.848005 0.643565 0.173068
0.868894 0.651469 0.17377
0.885893 0.659113 0.17554
0.900069 0.66659 0.177844
0.91249 0.673594 0.179049
0.924498 0.681285 0.181567
0.933486 0.688411 0.183886
0.939116 0.695201 0.186313
0.939605 0.700679 0.188525
0.940108 0.706035 0.190707
0.940002 0.710277 0.192706
0.939971 0.713878 0.194232
0.940368 0.717342 0.195712
0.327657 0.631968 0.452522
0.331502 0.635172 0.454551
0.354131 0.636469 0.437186
0.380041 0.637537 0.417014
0.417243 0.638697 0.38996
0.449241 0.641077 0.370901
0.479652 0.646906 0.357717
0.506416 0.653239 0.346471
0.52224 0.662623 0.347967
0.529839 0.67097 0.354589
0.53489 0.677928 0.360967
0.538552 0.68426 0.367788
0.540764 0.690166 0.376867
0.542443 0.696086 0.387228
0.575357 0.69749 0.355962
0.634546 0.693874 0.29163
0.688411 0.694926 0.250919
0.738964 0.693584 0.22092
0.786114 0.694606 0.205829
0.824338 0.696941 0.196979
0.852049 0.70132 0.195575
0.872267 0.707042 0.195911
0.889128 0.712703 0.196674
0.903471 0.719081 0.198016
0.91632 0.72578 0.199908
0.928191 0.732677 0.201968
0.937484 0.739071 0.204105
0.942245 0.744289 0.205966
0.942336 0.747753 0.207568
0.942412 0.750927 0.209049
0.942473 0.753979 0.210468
0.94255 0.756664 0.21181
0.942611 0.758618 0.212818
0.383139 0.691096 0.505669
0.390066 0.69308 0.503609
0.412833 0.693065 0.485908
0.441794 0.694224 0.466239
0.47715 0.692912 0.438041
0.506096 0.693721 0.416724
0.533883 0.698329 0.401358
0.558373 0.702525 0.385046
0.57496 0.710094 0.381399
0.582147 0.718624 0.389746
0.586267 0.724773 0.396902
0.588769 0.730175 0.404288
0.590707 0.735683 0.412985
0.591516 0.740505 0.423423
0.596201 0.745266 0.428428
0.651667 0.743709 0.353262
0.702144 0.743999 0.302327
0.750195 0.746502 0.266835
0.795651 0.747189 0.241535
0.831968 0.74873 0.228397
0.857374 0.751369 0.219364
0.877195 0.756558 0.217578
0.893996 0.762234 0.218479
0.907576 0.76733 0.219059
0.919799 0.772366 0.220127
0.930694 0.776623 0.221149
0.939208 0.780606 0.222293
0.943542 0.783886 0.223438
0.943648 0.786374 0.224521
0.943771 0.78819 0.225483
0.943877 0.78967 0.226337
0.943954 0.790661 0.226902
0.944015 0.79144 0.227344
0.428733 0.735973 0.545144
0.440284 0.737255 0.537972
0.463844 0.737453 0.520806
0.494408 0.736187 0.498726
0.526177 0.733242 0.470954
0.554299 0.734997 0.450767
0.57847 0.738445 0.434714
0.599817 0.742184 0.418326
0.614145 0.749035 0.41442
0.619852 0.756054 0.421286
0.623163 0.761318 0.427756
0.626551 0.767788 0.436118
0.629114 0.774075 0.445502
0.631144 0.780423 0.456901
0.633021 0.786435 0.467414
0.674372 0.786328 0.411658
0.723537 0.787121 0.347265
0.767987 0.788724 0.305592
0.809674 0.791165 0.277409
0.844373 0.792233 0.259892
0.868544 0.794766 0.250874
0.886442 0.797375 0.243534
0.900999 0.8 0.239033
0.913497 0.803525 0.238849
0.924804 0.806989 0.239979
0.934844 0.810056 0.241154
0.94255 0.812558 0.242145
0.946227 0.814145 0.242908
0.946303 0.815015 0.243519
0.94638 0.815976 0.244205
0.946441 0.816617 0.244663
0.946456 0.816938 0.244892
0.946471 0.817029 0.244953
0.463951 0.770748 0.57496
0.481193 0.771649 0.563043
0.504646 0.771786 0.545968
0.53695 0.7691 0.52256
0.567941 0.766461 0.493935
0.593393 0.767636 0.473121
0.614801 0.769879 0.456031
0.634714 0.774121 0.440787
0.644938 0.780438 0.440742
0.650401 0.787884 0.448646
0.655085 0.7953 0.457313
0.658701 0.802182 0.466239
0.660853 0.807935 0.475013
0.663233 0.814725 0.486549
0.664698 0.820233 0.496605
0.700435 0.822431 0.453788
0.747829 0.823423 0.389838
0.787732 0.822843 0.337346
0.825422 0.824445 0.303822
0.856596 0.824109 0.284276
0.878752 0.825574 0.276051
0.895216 0.827695 0.27039
0.908278 0.829358 0.266224
0.919295 0.83061 0.263264
0.929168 0.831708 0.260044
0.938064 0.83299 0.257877
0.945159 0.834409 0.257694
0.948089 0.835416 0.258061
0.948135 0.835798 0.258335
0.94815 0.836011 0.258488
0.948165 0.836225 0.25864
0.94818 0.836347 0.258732
0.948165 0.836271 0.258686
0.496666 0.798901 0.594125
0.514443 0.799847 0.582345
0.537911 0.799039 0.564843
0.571847 0.795819 0.539071
0.602411 0.793652 0.510063
0.627482 0.794491 0.488228
0.650263 0.797955 0.469886
0.666957 0.803677 0.46038
0.672602 0.810681 0.467063
0.677363 0.817349 0.474327
0.6813 0.824048 0.482521
0.685115 0.831174 0.492103
0.68748 0.837339 0.501534
0.689403 0.843381 0.51194
0.69073 0.8486 0.521645
0.722683 0.850401 0.48365
0.7664 0.850019 0.422232
0.802838 0.848402 0.368933
0.837674 0.849119 0.327581
0.865843 0.848295 0.304509
0.886305 0.848295 0.293507
0.901122 0.849439 0.289219
0.91284 0.849897 0.285878
0.923308 0.85066 0.282399
0.932662 0.851133 0.278431
0.940963 0.851759 0.275135
0.947478 0.852247 0.272541
0.949722 0.852674 0.27187
0.949737 0.852796 0.271977
0.949752 0.852872 0.272038
0.949752 0.852903 0.272084
0.949752 0.852872 0.272038
0.949737 0.852766 0.271946
0.524544 0.822614 0.608743
0.542245 0.82385 0.597482
0.569192 0.822705 0.579721
0.603952 0.818967 0.550072
0.635477 0.817578 0.52108
0.661006 0.819379 0.498344
0.682872 0.823636 0.480583
0.691035 0.83003 0.483162
0.695872 0.836713 0.490288
0.700175 0.843137 0.497658
0.703288 0.848798 0.505074
0.706127 0.854887 0.513771
0.707942 0.860212 0.522362
0.709453 0.8654 0.531685
0.709911 0.869368 0.53994
0.739269 0.871763 0.507012
0.780011 0.870481 0.448447
0.81297 0.867521 0.396735
0.845533 0.867521 0.353277
0.871672 0.86598 0.321828
0.891081 0.865614 0.308659
0.905104 0.865858 0.302434
0.916228 0.866087 0.299474
0.926238 0.866514 0.296834
0.935378 0.86685 0.293004
0.94345 0.867323 0.289479
0.949752 0.86772 0.286763
0.951476 0.867811 0.286015
0.951476 0.867811 0.286015
0.951476 0.867811 0.286015
0.951476 0.867781 0.285969
0.951461 0.867704 0.285893
0.951431 0.86746 0.285649
0.550362 0.844633 0.62118
0.568734 0.845396 0.610132
0.598764 0.843519 0.591043
0.635401 0.840116 0.557855
0.667735 0.83975 0.528359
0.693294 0.841871 0.504097
0.70663 0.846784 0.49723
0.711208 0.852949 0.503899
0.714595 0.857984 0.509712
0.717571 0.862791 0.515618
0.720851 0.868635 0.523308
0.722972 0.873732 0.530892
0.723964 0.877852 0.538384
0.724697 0.882216 0.546731
0.725093 0.885893 0.55465
0.749615 0.887877 0.527626
0.788113 0.885832 0.471046
0.820752 0.883726 0.421912
0.85156 0.882795 0.377798
0.876585 0.880781 0.341604
0.894697 0.879957 0.322377
0.908263 0.879744 0.314839
0.919234 0.879698 0.310887
0.929061 0.880293 0.308782
0.938186 0.88101 0.306661
0.945983 0.881254 0.303487
0.952239 0.881559 0.300755
0.953429 0.881529 0.300145
0.953414 0.881392 0.300008
0.953399 0.881285 0.299901
0.953399 0.881254 0.29987
0.953368 0.881056 0.299672
0.953323 0.880751 0.299367
0.573678 0.863401 0.630854
0.594003 0.863188 0.618189
0.627558 0.861509 0.596429
0.66537 0.858869 0.562707
0.696391 0.857801 0.531197
0.718273 0.86128 0.511955
0.72369 0.866285 0.515053
0.726665 0.870604 0.520073
0.729503 0.874922 0.5252
0.732082 0.87924 0.530617
0.734142 0.883558 0.536843
0.735286 0.887221 0.543038
0.735973 0.890806 0.549935
0.736858 0.895415 0.558648
0.73637 0.89807 0.565225
0.756848 0.900511 0.544808
0.79411 0.89836 0.490608
0.826978 0.897108 0.443091
0.855787 0.895125 0.398993
0.880598 0.893584 0.362799
0.898344 0.892622 0.338949
0.91107 0.891951 0.327504
0.921904 0.89189 0.322667
0.931701 0.892531 0.320378
0.940688 0.892989 0.318166
0.948272 0.893278 0.316167
0.954467 0.893568 0.313787
0.955154 0.893416 0.313298
0.955154 0.893355 0.313222
0.955123 0.893187 0.313008
0.955093 0.893004 0.312795
0.955062 0.89276 0.31252
0.955016 0.892439 0.312139
0.595209 0.87924 0.638331
0.617853 0.878981 0.625834
0.652003 0.876524 0.599939
0.68954 0.874357 0.566323
0.720638 0.873289 0.533227
0.733547 0.876677 0.523735
0.736324 0.880415 0.527672
0.738872 0.884321 0.532372
0.741161 0.887953 0.53695
0.742901 0.891157 0.541421
0.744671 0.895125 0.547326
0.745708 0.898756 0.553536
0.746303 0.902113 0.56025
0.74638 0.905486 0.56733
0.745953 0.908125 0.573816
0.762936 0.911147 0.559533
0.799908 0.909712 0.508171
0.832227 0.908797 0.46215
0.859586 0.90605 0.418311
0.884047 0.904814 0.382681
0.901366 0.903593 0.35697
0.913893 0.902846 0.34107
0.924331 0.902647 0.334401
0.933852 0.902922 0.331228
0.942809 0.903456 0.329076
0.950225 0.903914 0.327337
