luts/honey.cube
LUT_3D_SIZE 5
0.0757763 0.0824903 0.094728
0.131258 0.0842908 0.097734
0.66392 0.0702678 0.125124
0.852796 0.076051 0.139025
0.90428 0.0790265 0.142947
0.0844129 0.11104 0.108385
0.110002 0.102358 0.0986801
0.59736 0.0944076 0.119982
0.848249 0.110323 0.135744
0.904036 0.135698 0.138933
0.225193 0.475273 0.32221
0.377493 0.529397 0.267414
0.672068 0.566339 0.164858
0.909285 0.617288 0.159762
0.938598 0.668193 0.176989
0.550362 0.844633 0.62118
0.714595 0.857984 0.509712
0.788113 0.885832 0.471046
0.938186 0.88101 0.306661
0.953323 0.880751 0.299367
0.644404 0.907607 0.647761
0.765652 0.915709 0.562875
0.818372 0.948409 0.568978
0.95256 0.950484 0.39353
0.962722 0.950195 0.378195
0.0759899 0.0839094 0.107103
0.0895247 0.0879988 0.113558
0.580163 0.0766918 0.127871
0.827344 0.0796979 0.140551
0.902022 0.0822156 0.146029
0.0797436 0.115129 0.130556
0.0917525 0.0962234 0.106188
0.56817 0.083772 0.121233
0.841718 0.0976577 0.140017
0.903868 0.130022 0.156191
0.213886 0.507836 0.382712
0.371267 0.56228 0.338247
0.648539 0.574945 0.185595
0.9037 0.626978 0.184237
0.939101 0.676295 0.218692
0.478981 0.852094 0.686275
0.694133 0.860563 0.551385
0.75938 0.886137 0.520638
0.928283 0.878569 0.328313
0.953796 0.87808 0.324758
0.539178 0.90837 0.71252
0.760937 0.909163 0.565713
0.804288 0.94548 0.577844
0.942794 0.951354 0.422614
0.963195 0.951293 0.398383
0.0768902 0.0878462 0.330129
0.0766155 0.0873579 0.373709
0.263859 0.144152 0.413108
0.757122 0.183398 0.459312
0.896315 0.184085 0.462989
0.0867933 0.147021 0.347463
0.0819715 0.113771 0.328862
0.285924 0.172122 0.358068
0.806088 0.238346 0.485924
0.928985 0.324651 0.614511
0.173754 0.542275 0.561303
0.217563 0.578698 0.597391
0.605386 0.60267 0.574792
0.883406 0.614206 0.603845
0.937697 0.665995 0.671366
0.324041 0.883879 0.823651
0.38497 0.887419 0.790799
0.821057 0.874556 0.656184
0.911604 0.877928 0.597116
0.958907 0.878141 0.614618
0.353185 0.931151 0.856397
0.412421 0.927016 0.807477
0.880156 0.936645 0.664515
0.926482 0.956741 0.637263
0.966491 0.958175 0.622965
0.08336 0.0949416 0.669078
0.0883497 0.0952621 0.690929
0.0957351 0.118029 0.684688
0.677378 0.312947 0.751446
0.85182 0.369726 0.782681
0.0895247 0.154757 0.642588
0.0860151 0.128756 0.648676
0.0976577 0.115709 0.660136
0.762081 0.396063 0.786511
0.905867 0.474479 0.845335
0.162188 0.467826 0.688548
0.181659 0.50338 0.730587
0.382269 0.575494 0.763653
0.859892 0.701076 0.841352
0.935058 0.733104 0.873274
0.347021 0.843458 0.856641
0.415061 0.848951 0.858076
0.674861 0.869612 0.849729
0.896849 0.887709 0.849958
0.957732 0.886244 0.854765
0.391775 0.903944 0.895277
0.465003 0.919676 0.898772
0.707271 0.956847 0.886
0.94699 0.959991 0.853147
0.970901 0.965484 0.853681
0.113207 0.0974899 0.760952
0.112566 0.0967422 0.760891
0.113664 0.111589 0.761364
0.635172 0.300313 0.82237
0.840528 0.401617 0.843931
0.120516 0.163455 0.764965
0.118288 0.145693 0.763577
0.117617 0.112749 0.761517
0.756985 0.405371 0.839338
0.907912 0.49398 0.860578
0.172274 0.508949 0.796323
0.188052 0.539391 0.816205
0.360037 0.603174 0.834699
0.852857 0.715541 0.881712
0.936721 0.747799 0.893828
0.314824 0.804593 0.865705
0.365713 0.811185 0.870848
0.615198 0.833967 0.882765
0.874205 0.893462 0.906508
0.960174 0.894301 0.913603
0.373312 0.855055 0.887617
0.442481 0.863783 0.889357
0.685008 0.910918 0.902907
0.898619 0.953033 0.918364
0.972717 0.968261 0.923644
