luts/honey.cube
LUT_3D_SIZE 9
0.0757763 0.0824903 0.094728
0.086717 0.0851759 0.0955825
0.131258 0.0842908 0.097734
0.382452 0.0681468 0.112718
0.66392 0.0702678 0.125124
0.799878 0.0741283 0.134936
0.852796 0.076051 0.139025
0.888701 0.0781109 0.141741
0.90428 0.0790265 0.142947
0.0776532 0.0863355 0.0963149
0.0852979 0.0882582 0.0958114
0.113283 0.0916762 0.0975204
0.298909 0.0783093 0.107424
0.587488 0.0769513 0.12076
0.756466 0.0793011 0.130983
0.823011 0.0815747 0.136126
0.869383 0.084535 0.139666
0.904494 0.0878157 0.142321
0.0844129 0.11104 0.108385
0.0866407 0.10367 0.102098
0.110002 0.102358 0.0986801
0.285527 0.0932479 0.105928
0.59736 0.0944076 0.119982
0.778698 0.101259 0.131014
0.848249 0.110323 0.135744
0.897398 0.124193 0.13872
0.904036 0.135698 0.138933
0.104631 0.189624 0.143526
0.1205 0.174289 0.118029
0.132952 0.201801 0.126833
0.279469 0.194598 0.102678
0.630564 0.207202 0.11577
0.81323 0.250904 0.126574
0.887816 0.308339 0.131075
0.927459 0.354406 0.133135
0.931487 0.383276 0.133654
0.225193 0.475273 0.32221
0.286152 0.483101 0.274128
0.377493 0.529397 0.267414
0.405966 0.573861 0.30164
0.672068 0.566339 0.164858
0.845243 0.587015 0.153353
0.909285 0.617288 0.159762
0.937987 0.647028 0.168719
0.938598 0.668193 0.176989
0.428733 0.735973 0.545144
0.526177 0.733242 0.470954
0.614145 0.749035 0.41442
0.629114 0.774075 0.445502
0.723537 0.787121 0.347265
0.868544 0.794766 0.250874
0.924804 0.806989 0.239979
0.946303 0.815015 0.243519
0.946471 0.817029 0.244953
0.550362 0.844633 0.62118
0.667735 0.83975 0.528359
0.714595 0.857984 0.509712
0.723964 0.877852 0.538384
0.788113 0.885832 0.471046
0.894697 0.879957 0.322377
0.938186 0.88101 0.306661
0.953414 0.881392 0.300008
0.953323 0.880751 0.299367
0.628885 0.903288 0.648981
0.749401 0.8963 0.54345
0.759243 0.907973 0.555001
0.763378 0.920516 0.576532
0.809415 0.929229 0.538506
0.907301 0.922911 0.391196
0.94641 0.921447 0.348943
0.958892 0.921721 0.345296
0.95877 0.920729 0.344167
0.644404 0.907607 0.647761
0.760678 0.906386 0.549813
0.765652 0.915709 0.562875
0.773007 0.931243 0.586587
0.818372 0.948409 0.568978
0.914931 0.950439 0.444251
0.95256 0.950484 0.39353
0.962768 0.9505 0.378546
0.962722 0.950195 0.378195
0.0758984 0.0827955 0.0974136
0.0791791 0.0840009 0.0985733
0.099321 0.0871443 0.101488
0.278874 0.0744793 0.109178
0.609644 0.0718242 0.122759
0.77258 0.0731823 0.133227
0.83447 0.0741283 0.13814
0.876158 0.075227 0.141329
0.902968 0.0762188 0.14345
0.0769818 0.0890211 0.10251
0.0801404 0.0856947 0.097261
0.0995346 0.0893568 0.0979782
0.255024 0.0766003 0.105104
0.550164 0.0699321 0.11986
0.734997 0.0698253 0.12987
0.80911 0.0704967 0.136049
0.859937 0.0716106 0.13991
0.902312 0.0736553 0.143221
0.0778515 0.102083 0.114672
0.08542 0.0951247 0.100908
0.0963607 0.0983749 0.0998245
0.248295 0.0914778 0.105196
0.573465 0.0863813 0.119997
0.768841 0.0860761 0.131609
0.844083 0.0903182 0.137484
0.894469 0.10016 0.141283
0.904997 0.111681 0.143099
0.10042 0.189715 0.151217
0.11342 0.178531 0.127443
0.141543 0.198962 0.128771
0.246082 0.199466 0.111971
0.610834 0.210681 0.117739
0.80322 0.256199 0.132097
0.881148 0.310567 0.142107
0.92604 0.356863 0.1514
0.930266 0.384558 0.15874
0.232868 0.490211 0.333394
0.280156 0.500923 0.300908
0.388449 0.53817 0.279271
0.426261 0.573495 0.297047
0.648997 0.566323 0.173037
0.834348 0.586099 0.158816
0.902922 0.61648 0.167895
0.937926 0.646693 0.181018
0.938048 0.667323 0.193194
0.43595 0.743084 0.551263
0.514382 0.74229 0.495796
0.601373 0.752544 0.441428
0.640513 0.773663 0.436866
0.707469 0.790784 0.381384
0.858473 0.794507 0.26006
0.917372 0.8038 0.244587
0.945907 0.810117 0.247654
0.945983 0.810666 0.249485
0.528588 0.847532 0.641245
0.637903 0.845518 0.565621
0.719203 0.854658 0.50367
0.736934 0.872923 0.516167
0.766079 0.884611 0.500237
0.883101 0.877501 0.336034
0.929854 0.877821 0.312825
0.953094 0.878279 0.304967
0.952987 0.877104 0.305333
0.582712 0.906279 0.679454
0.705379 0.899489 0.592859
0.770504 0.903517 0.536171
0.776883 0.916762 0.552621
0.787182 0.928359 0.561593
0.896086 0.922118 0.410391
0.938277 0.919982 0.357443
0.958877 0.920562 0.352346
0.958755 0.919387 0.352224
0.597452 0.909758 0.67303
0.723842 0.906828 0.589075
0.77673 0.910094 0.540993
0.784527 0.926436 0.561807
0.797192 0.947875 0.588403
0.903777 0.94992 0.459998
0.945083 0.950759 0.407874
0.96286 0.950652 0.38439
0.962829 0.950301 0.384924
0.0759899 0.0839094 0.107103
0.0771954 0.0843671 0.107698
0.0895247 0.0879988 0.113558
0.223026 0.0843366 0.11574
0.580163 0.0766918 0.127871
0.759976 0.078584 0.135958
0.827344 0.0796979 0.140551
0.872572 0.080827 0.143786
0.902022 0.0822156 0.146029
0.0770123 0.0914931 0.116533
0.0788128 0.0869154 0.107042
0.0893111 0.0906539 0.106661
0.20621 0.0839857 0.105318
0.517479 0.0723735 0.119356
0.719463 0.0723735 0.128954
0.800595 0.0731975 0.135363
0.85597 0.0751202 0.139773
0.901595 0.0789807 0.143648
0.0797436 0.115129 0.130556
0.0817273 0.0971084 0.11046
0.0917525 0.0962234 0.106188
0.241596 0.0893416 0.107973
0.56817 0.083772 0.121233
0.764477 0.0884565 0.132647
0.841718 0.0976577 0.140017
0.894163 0.113497 0.147295
0.903868 0.130022 0.156191
0.0897231 0.188861 0.179751
0.100984 0.182559 0.155306
0.144564 0.209369 0.149889
0.246204 0.21236 0.124071
0.62089 0.229541 0.127565
0.809827 0.270924 0.145876
0.885283 0.323369 0.163958
0.927352 0.367025 0.183017
0.930388 0.393286 0.202167
0.213886 0.507836 0.382712
0.265354 0.518578 0.353674
0.371267 0.56228 0.338247
0.458961 0.581582 0.307576
0.648539 0.574945 0.185595
0.83447 0.594491 0.171405
0.9037 0.626978 0.184237
0.937804 0.655756 0.200259
0.939101 0.676295 0.218692
0.398001 0.751751 0.595956
0.492348 0.752682 0.530907
0.579309 0.764279 0.493996
0.66006 0.776501 0.43505
0.705928 0.796506 0.412238
0.858412 0.798596 0.272328
0.916533 0.804974 0.255085
0.946044 0.81033 0.258991
0.946075 0.810346 0.263172
0.478981 0.852094 0.686275
0.611856 0.854368 0.600656
0.694133 0.860563 0.551385
0.751217 0.871977 0.509911
0.75938 0.886137 0.520638
0.879561 0.878538 0.357275
0.928283 0.878569 0.328313
0.953826 0.87921 0.32282
0.953796 0.87808 0.324758
0.528298 0.907652 0.721172
0.673274 0.904768 0.625589
0.745174 0.904097 0.574029
0.790173 0.915358 0.543908
0.790173 0.928695 0.563348
0.891936 0.922957 0.429664
0.936156 0.920989 0.372671
0.959167 0.921279 0.36672
0.959045 0.920012 0.367575
0.539178 0.90837 0.71252
0.690379 0.910323 0.621744
0.760937 0.909163 0.565713
0.796277 0.92369 0.550988
0.804288 0.94548 0.577844
0.899367 0.950225 0.474586
0.942794 0.951354 0.422614
0.963134 0.951217 0.396567
0.963195 0.951293 0.398383
0.0742962 0.0859541 0.153658
0.0748913 0.0852827 0.134432
0.0753796 0.0860151 0.140185
0.108324 0.103777 0.148226
0.470848 0.107408 0.153674
0.714961 0.110552 0.154742
0.799832 0.112108 0.157748
0.856336 0.11397 0.161288
0.901534 0.117815 0.163989
0.0773022 0.102892 0.194522
0.0755322 0.0917983 0.171939
0.0750591 0.0865492 0.151583
0.112505 0.101396 0.141802
0.392538 0.0899062 0.141192
0.662654 0.0893416 0.14284
0.76939 0.0923781 0.147662
0.83946 0.097734 0.154086
0.895659 0.106996 0.161227
0.080766 0.12401 0.211795
0.0789197 0.109361 0.188937
0.0810712 0.104067 0.180987
0.133501 0.11783 0.159899
0.470893 0.110567 0.162051
0.726925 0.118029 0.165316
0.822828 0.135729 0.177356
0.888472 0.167224 0.197345
0.908278 0.202426 0.220935
0.0965133 0.226093 0.248096
0.0958267 0.209888 0.231937
0.11339 0.234562 0.253864
0.22089 0.229435 0.225834
0.599222 0.226017 0.218997
0.798932 0.259861 0.240589
0.87863 0.31252 0.280003
0.927642 0.358312 0.319982
0.930465 0.389059 0.360739
0.134386 0.447639 0.472175
0.161166 0.502968 0.487419
0.239246 0.569986 0.477073
0.478691 0.585351 0.383261
0.632258 0.577585 0.245518
0.828748 0.598932 0.235431
0.904906 0.636011 0.285908
0.946227 0.668299 0.344854
0.947158 0.686549 0.397162
0.277562 0.74667 0.686732
0.357961 0.754589 0.634882
0.465354 0.77467 0.594171
0.658778 0.778012 0.498314
0.703044 0.797345 0.47628
0.85182 0.798566 0.333639
0.913497 0.803952 0.33077
0.950164 0.81062 0.34667
0.950713 0.811154 0.361593
0.334524 0.849851 0.791714
0.483955 0.857969 0.6851
0.592477 0.869764 0.63827
0.754559 0.867887 0.552422
0.778485 0.881727 0.535424
0.86836 0.876387 0.421286
0.923598 0.878233 0.386267
0.954971 0.878782 0.384924
0.954879 0.877302 0.392142
0.376318 0.905806 0.834775
0.550164 0.907088 0.697856
0.654017 0.913634 0.658152
0.800061 0.911925 0.572488
0.815442 0.924926 0.564095
0.88159 0.92256 0.485023
0.931029 0.921752 0.427314
0.960067 0.922286 0.418555
0.959915 0.920745 0.423239
0.394766 0.906722 0.822385
0.576089 0.913054 0.68896
0.680385 0.917617 0.653315
0.813901 0.919066 0.566033
0.829236 0.942718 0.574975
0.890745 0.951537 0.521691
0.937392 0.951827 0.46981
0.963912 0.952605 0.439872
0.963973 0.952651 0.444739
0.0768902 0.0878462 0.330129
0.0764324 0.0870832 0.342885
0.0766155 0.0873579 0.373709
0.0794232 0.0926528 0.392905
0.263859 0.144152 0.413108
0.625483 0.192523 0.459831
0.757122 0.183398 0.459312
0.835996 0.180377 0.457572
0.896315 0.184085 0.462989
0.0808881 0.108568 0.335653
0.0778821 0.0950942 0.310155
0.0769665 0.0897688 0.300465
0.077821 0.0890211 0.255436
0.188785 0.130983 0.271946
0.563256 0.136629 0.294087
0.714137 0.144686 0.305272
0.810513 0.155871 0.336538
0.886061 0.170871 0.383261
0.0867933 0.147021 0.347463
0.0824903 0.124208 0.320974
0.0819715 0.113771 0.328862
0.0806592 0.0913405 0.295506
0.285924 0.172122 0.358068
0.6692 0.209216 0.428809
0.806088 0.238346 0.485924
0.893507 0.279591 0.553292
0.928985 0.324651 0.614511
0.0998703 0.219806 0.345815
0.0985428 0.214328 0.348943
0.10869 0.239094 0.398596
0.143633 0.242145 0.420813
0.468589 0.347372 0.492805
0.765103 0.378958 0.548592
0.864302 0.410956 0.590433
0.926467 0.446372 0.63035
0.930404 0.480247 0.666499
0.173754 0.542275 0.561303
0.178286 0.542718 0.566644
0.217563 0.578698 0.597391
0.321035 0.596506 0.600214
0.605386 0.60267 0.574792
0.804257 0.590112 0.572671
0.883406 0.614206 0.603845
0.934554 0.645289 0.642283
0.937697 0.665995 0.671366
0.261326 0.784772 0.744808
0.269871 0.784558 0.738323
0.306645 0.801633 0.741772
0.40911 0.802213 0.704173
0.750057 0.794827 0.624323
0.831724 0.798413 0.578637
0.906493 0.806531 0.592599
0.949233 0.815625 0.613642
0.957702 0.818143 0.630182
0.324041 0.883879 0.823651
0.343038 0.880903 0.804944
0.38497 0.887419 0.790799
0.481712 0.880598 0.737133
0.821057 0.874556 0.656184
0.847761 0.87747 0.625269
0.911604 0.877928 0.597116
0.950423 0.878584 0.603265
0.958907 0.878141 0.614618
0.353506 0.932006 0.857603
0.371984 0.924071 0.830961
0.408728 0.925536 0.809308
0.539361 0.919646 0.738552
0.861082 0.918944 0.667613
0.86389 0.925124 0.652399
0.920272 0.924788 0.619333
0.955764 0.92491 0.611093
0.962661 0.924041 0.619516
0.353185 0.931151 0.856397
0.375006 0.927352 0.831556
0.412421 0.927016 0.807477
0.584787 0.925216 0.721782
0.880156 0.936645 0.664515
0.884138 0.953475 0.659907
0.926482 0.956741 0.637263
0.960296 0.957656 0.619516
0.966491 0.958175 0.622965
0.0800183 0.0916915 0.566842
0.0798505 0.0915999 0.580713
0.0798047 0.0918135 0.593744
0.0801404 0.0936904 0.596918
0.112932 0.122408 0.597208
0.529015 0.24062 0.645426
0.694697 0.299443 0.668376
0.788266 0.306966 0.685145
0.866178 0.316381 0.705501
0.082826 0.110124 0.549554
0.0808118 0.0985885 0.536828
0.0800793 0.0948196 0.537499
0.0785229 0.0896773 0.504341
0.0893111 0.10695 0.503471
0.427512 0.19884 0.544854
0.647959 0.270329 0.597452
0.776867 0.287297 0.640726
0.872129 0.313512 0.686702
0.0882124 0.152331 0.552193
0.084535 0.126665 0.539635
0.0836347 0.12018 0.551888
0.0794232 0.0907301 0.536446
0.118715 0.122454 0.560678
0.590524 0.293996 0.651301
0.765286 0.367895 0.704952
0.860655 0.394827 0.747845
0.907256 0.424842 0.779919
0.108492 0.258427 0.540948
0.108141 0.257023 0.556893
0.115816 0.283482 0.597452
0.129 0.274388 0.614771
0.224765 0.255604 0.629358
0.715755 0.465309 0.72137
0.826749 0.508171 0.756954
0.899565 0.530343 0.788556
0.916228 0.553735 0.809293
0.163439 0.481987 0.618082
0.16466 0.478553 0.632776
0.18265 0.506539 0.663569
0.229816 0.516289 0.67718
0.431876 0.56994 0.696773
0.767605 0.652049 0.750347
0.864347 0.676463 0.78201
0.927031 0.698344 0.809674
0.938064 0.71342 0.824338
0.273381 0.757595 0.767819
0.27863 0.749905 0.764858
0.321447 0.768414 0.780514
0.433356 0.783978 0.785992
0.646616 0.797009 0.776257
0.819791 0.811231 0.778363
0.887724 0.809384 0.78172
0.932403 0.810391 0.788281
0.949828 0.811505 0.79382
0.354116 0.876631 0.858518
0.383062 0.877592 0.85713
0.426368 0.887709 0.862074
0.517128 0.901183 0.861921
0.688945 0.894392 0.808454
0.867903 0.880461 0.782864
0.901122 0.8822 0.776791
0.944945 0.885985 0.784436
0.962158 0.887922 0.79202
0.392645 0.934249 0.899733
0.426078 0.939116 0.897246
0.462333 0.944808 0.896727
0.539315 0.943374 0.876875
0.701991 0.930282 0.789136
0.902876 0.924376 0.788693
0.911635 0.927565 0.782757
0.949264 0.927901 0.780118
0.965377 0.927382 0.784894
0.394675 0.936477 0.90013
0.431952 0.947097 0.899748
0.466529 0.94818 0.894423
0.542382 0.948623 0.866835
0.706676 0.94461 0.776364
0.926482 0.952453 0.788937
0.932372 0.959487 0.785489
0.954543 0.962264 0.783047
0.969223 0.963027 0.784512
0.08336 0.0949416 0.669078
0.0850233 0.0949264 0.679301
0.0883497 0.0952621 0.690929
0.0878157 0.0960555 0.688914
0.0957351 0.118029 0.684688
0.476448 0.218082 0.719921
0.677378 0.312947 0.751446
0.777356 0.353872 0.766125
0.85182 0.369726 0.782681
0.0849775 0.11368 0.643153
0.0830243 0.102342 0.634363
0.0823224 0.0988327 0.636027
0.0802167 0.0925002 0.61413
0.0820783 0.103532 0.611536
0.355947 0.16614 0.636255
0.630137 0.291981 0.70074
0.766217 0.345846 0.736675
0.860044 0.372961 0.774548
0.0895247 0.154757 0.642588
0.0864271 0.132158 0.636072
0.0860151 0.128756 0.648676
0.0817426 0.0940719 0.644419
0.0976577 0.115709 0.660136
0.562005 0.27747 0.736202
0.762081 0.396063 0.786511
0.855512 0.447547 0.818631
0.905867 0.474479 0.845335
0.113878 0.282811 0.643488
0.113985 0.283131 0.657847
0.121798 0.311406 0.690562
0.131823 0.302647 0.705821
0.179767 0.24419 0.708553
0.700862 0.461524 0.792493
0.824872 0.533989 0.823774
0.897475 0.569284 0.85008
0.917708 0.588861 0.865248
0.162188 0.467826 0.688548
0.165621 0.474205 0.704463
0.181659 0.50338 0.730587
0.22295 0.526986 0.745312
0.382269 0.575494 0.763653
0.735348 0.643763 0.806653
0.859892 0.701076 0.841352
0.921187 0.72311 0.863096
0.935058 0.733104 0.873274
0.258625 0.716396 0.769207
0.260929 0.713619 0.773785
0.29691 0.733852 0.792065
0.389715 0.751156 0.804639
0.590539 0.763851 0.809735
0.790829 0.811749 0.829618
0.881819 0.821775 0.846418
0.927733 0.824903 0.854368
0.949737 0.825422 0.859007
0.347021 0.843458 0.856641
0.372976 0.841138 0.854109
0.415061 0.848951 0.858076
0.50277 0.856046 0.856107
0.674861 0.869612 0.849729
0.821027 0.876188 0.844877
0.896849 0.887709 0.849958
0.937728 0.886458 0.851469
0.957732 0.886244 0.854765
0.390173 0.902266 0.895018
0.423041 0.904601 0.893065
0.458671 0.911757 0.895598
0.538308 0.923873 0.896666
0.69987 0.94049 0.888899
0.838682 0.930632 0.840635
0.925399 0.930144 0.851148
0.945312 0.931197 0.850843
0.966003 0.932052 0.855726
0.391775 0.903944 0.895277
0.429725 0.913893 0.897475
0.465003 0.919676 0.898772
0.545937 0.937896 0.903319
0.707271 0.956847 0.886
0.847822 0.953597 0.823621
0.94699 0.959991 0.853147
0.955276 0.964126 0.85243
0.970901 0.965484 0.853681
0.104967 0.0969711 0.741253
0.10811 0.0966659 0.749676
0.112383 0.0966964 0.760525
0.110979 0.0971237 0.757366
0.109957 0.114702 0.749386
0.431937 0.207691 0.776547
0.657176 0.308202 0.809567
0.770169 0.37113 0.825315
0.846448 0.399878 0.836652
0.0979477 0.116808 0.711543
0.0945602 0.10573 0.705211
0.0944686 0.102281 0.707515
0.0893416 0.0953384 0.694545
0.0888991 0.103029 0.690684
0.292973 0.154345 0.707347
0.612131 0.285573 0.771084
0.767193 0.373373 0.808225
0.857771 0.413214 0.834623
0.101793 0.159808 0.710536
0.0988327 0.139284 0.707622
0.101686 0.137896 0.719676
0.097734 0.0981613 0.721828
0.107988 0.113252 0.73196
0.547814 0.275883 0.800092
0.758907 0.401511 0.839185
0.856474 0.458869 0.850111
0.907256 0.48893 0.859983
0.121386 0.304662 0.716762
0.123369 0.307546 0.730068
0.13167 0.337667 0.757092
0.146883 0.332708 0.771313
0.174502 0.248005 0.769665
0.681041 0.460334 0.839414
0.824598 0.543786 0.857435
0.896513 0.579843 0.867414
0.918914 0.599985 0.873106
0.167483 0.488441 0.749508
0.171283 0.496483 0.762615
0.185138 0.522911 0.781292
0.221012 0.543145 0.79263
0.361349 0.588907 0.811933
0.705379 0.640681 0.849287
0.856397 0.708583 0.880995
0.919158 0.73489 0.889784
0.936034 0.743389 0.893156
0.241794 0.709804 0.801373
0.244724 0.707774 0.806729
0.274449 0.727062 0.822354
0.349584 0.740887 0.834714
0.548196 0.75317 0.843946
0.772152 0.812696 0.863722
0.860365 0.819821 0.879957
0.92372 0.832212 0.890959
0.94963 0.834241 0.896117
0.335882 0.817792 0.854734
0.354742 0.812131 0.850919
0.391669 0.81857 0.854871
0.478233 0.827115 0.857588
0.644099 0.843595 0.862562
0.798642 0.861402 0.869764
0.884306 0.891142 0.885588
0.934691 0.891402 0.892576
0.959319 0.890852 0.894972
0.381811 0.876875 0.891264
0.414298 0.87863 0.889799
0.449973 0.884703 0.891981
0.529213 0.893477 0.892363
0.687922 0.910887 0.89041
0.829313 0.923095 0.888823
0.897536 0.928786 0.890394
0.942672 0.934508 0.892973
0.966094 0.933455 0.894392
0.382391 0.878202 0.891463
0.421637 0.886503 0.8934
0.457115 0.891127 0.89427
0.536004 0.905699 0.898085
0.698604 0.943679 0.908263
0.84004 0.962249 0.900999
0.906645 0.96144 0.876234
0.961837 0.964858 0.892287
0.972183 0.96733 0.893462
0.113207 0.0974899 0.760952
0.112856 0.0970169 0.760922
0.112566 0.0967422 0.760891
0.112428 0.0970321 0.760891
0.113664 0.111589 0.761364
0.376089 0.18822 0.784451
0.635172 0.300313 0.82237
0.758434 0.366522 0.836805
0.840528 0.401617 0.843931
0.116075 0.118563 0.76173
0.114611 0.10779 0.761257
0.113939 0.104204 0.761135
0.112428 0.0967727 0.760891
0.111406 0.102129 0.757824
0.242527 0.148211 0.768002
0.600565 0.28751 0.818433
0.763058 0.375616 0.837644
0.856764 0.419257 0.847044
0.120516 0.163455 0.764965
0.118807 0.145556 0.763592
0.118288 0.145693 0.763577
0.113268 0.102052 0.761059
0.117617 0.112749 0.761517
0.533562 0.274052 0.812039
0.756985 0.405371 0.839338
0.85507 0.463554 0.850324
0.907912 0.49398 0.860578
0.138048 0.32932 0.776913
0.142626 0.333333 0.789197
0.144167 0.357702 0.794064
0.155993 0.354406 0.79443
0.176501 0.260639 0.78201
0.671244 0.463661 0.839185
0.821424 0.549371 0.858
0.894652 0.586892 0.867781
0.919463 0.608209 0.873976
0.172274 0.508949 0.796323
0.175677 0.515038 0.80621
0.188052 0.539391 0.816205
0.221485 0.556298 0.819348
0.360037 0.603174 0.834699
0.693355 0.646494 0.86067
0.852857 0.715541 0.881712
0.916686 0.740475 0.890211
0.936721 0.747799 0.893828
0.237446 0.706081 0.829801
0.242573 0.704784 0.835279
0.268452 0.723751 0.849622
0.331472 0.736034 0.855482
0.523445 0.752194 0.865156
0.761532 0.816968 0.885969
0.842206 0.81706 0.894255
0.917632 0.834104 0.902968
0.950545 0.838315 0.906096
0.314824 0.804593 0.865705
0.330144 0.802731 0.867842
0.365713 0.811185 0.870848
0.452125 0.821134 0.875578
0.615198 0.833967 0.882765
0.784527 0.862974 0.894148
0.874205 0.893462 0.906508
0.923354 0.891844 0.911025
0.960174 0.894301 0.913603
0.372763 0.853574 0.887343
0.401343 0.85481 0.886305
0.437644 0.862058 0.888609
0.514229 0.869154 0.888502
0.665736 0.886046 0.893385
0.811505 0.907546 0.903792
0.883726 0.919478 0.910735
0.936645 0.93843 0.917784
0.967346 0.935195 0.919112
0.373312 0.855055 0.887617
0.408576 0.861158 0.888914
0.442481 0.863783 0.889357
0.522835 0.877287 0.892973
0.685008 0.910918 0.902907
0.82829 0.941604 0.912169
0.898619 0.953033 0.918364
0.941711 0.961303 0.921447
0.972717 0.968261 0.923644
