luts/teal.cube
LUT_3D_SIZE 33
0.026978 0.0279393 0.0319524
0.0303655 0.0296635 0.0343786
0.0389563 0.0320134 0.0353552
0.0442054 0.0335088 0.0354314
0.0519722 0.034638 0.0354162
0.0626383 0.0362097 0.0354162
0.0751812 0.0397192 0.0355077
0.0876631 0.0437324 0.0346685
0.1084 0.0463569 0.0331579
0.131167 0.0482032 0.0310826
0.152529 0.0499428 0.0274052
0.171466 0.051606 0.0222934
0.190219 0.0523995 0.0114595
0.207889 0.0530251 0.00169375
0.228397 0.0536507 0.000823987
0.249119 0.0541695 0
0.273854 0.0532235 0
0.299245 0.0520943 0
0.326024 0.0492103 0
0.352422 0.0458534 0
0.374548 0.0411841 0
0.395621 0.0360876 0
0.414862 0.0196078 0
0.434104 0.0031281 0
0.453285 0.000701915 0
0.471992 0.000183108 0
0.489677 0 0
0.506508 0 0
0.522148 0 0
0.535302 0 0
0.547005 0 0
0.556359 0 0
0.563943 0 0
0.026627 0.0315404 0.0340124
0.0278935 0.0324407 0.0352636
0.0378424 0.0348058 0.0368963
0.0409857 0.0370489 0.0374456
0.0467231 0.0386206 0.0375677
0.0605325 0.04065 0.037705
0.0755779 0.0437934 0.0373541
0.0893721 0.0472419 0.0361181
0.10869 0.049958 0.0345312
0.129885 0.0507362 0.0319829
0.14931 0.0500343 0.0284733
0.168124 0.0513161 0.0231937
0.187045 0.0522774 0.0134127
0.204791 0.0529183 0.00248722
0.225132 0.0535439 0.000961318
0.246281 0.0541848 6.10361e-05
0.271168 0.0533303 0
0.297063 0.0523232 0
0.324636 0.0493629 0
0.352041 0.0459297 0
0.374548 0.0411841 0
0.396277 0.0355383 0
0.416007 0.0186313 0
0.435889 0.00158694 0
0.455909 0.00062562 0
0.475608 7.62951e-05 0
0.493538 0 0
0.510994 0 0
0.526223 0 0
0.53991 0 0
0.552026 0 0
0.560784 0 0
0.568689 0 0
0.0211948 0.0408789 0.0375067
0.0231937 0.041001 0.0377508
0.0335393 0.0430304 0.0396277
0.0383307 0.0449378 0.040116
0.0442359 0.0466773 0.0404059
0.0582589 0.0490578 0.0403754
0.0765393 0.0522469 0.0394903
0.0920882 0.0556954 0.038529
0.112322 0.057969 0.0364538
0.135836 0.0585031 0.0336156
0.15996 0.0579538 0.0293736
0.180713 0.0580911 0.021973
0.199161 0.0572976 0.0130922
0.215106 0.0565499 0.00296025
0.231815 0.0561532 0.000961318
0.247547 0.0547799 7.62951e-05
0.271366 0.0533303 0
0.298054 0.0522164 0
0.326421 0.0491646 0
0.354635 0.0453803 0
0.378225 0.0403906 0
0.400183 0.0321813 0
0.420737 0.0145724 0
0.441138 0.00103761 0
0.461814 0.000457771 0
0.481636 0 0
0.500328 0 0
0.518212 0 0
0.532799 0 0
0.546746 0 0
0.557717 0 0
0.566583 0 0
0.574807 0 0
0.0193332 0.0450446 0.0398871
0.0197604 0.0446479 0.0397345
0.0316167 0.0463417 0.0416266
0.038468 0.0481727 0.0420233
0.0433814 0.0500191 0.0424048
0.0567941 0.0524147 0.0423743
0.0770886 0.0555428 0.0413825
0.0941329 0.0597696 0.0405127
0.114946 0.0630045 0.0382239
0.140002 0.0646983 0.0350958
0.166537 0.0656596 0.0308232
0.189273 0.0665446 0.021622
0.210422 0.066743 0.0117952
0.229129 0.0661631 0.00216678
0.249104 0.0644236 0.000701915
0.269749 0.062562 0
0.293614 0.0594034 0
0.316732 0.0562142 0
0.337087 0.0507057 0
0.360708 0.0440986 0
0.385245 0.0389105 0
0.406867 0.0264591 0
0.427909 0.00843824 0
0.449348 0.000808728 0
0.470192 0.000228885 0
0.489982 0 0
0.508827 0 0
0.525704 0 0
0.540566 0 0
0.55404 0 0
0.564157 0 0
0.573114 0 0
0.581018 0 0
0.0147402 0.0492256 0.0414435
0.0151675 0.0488441 0.0413062
0.0287327 0.0502022 0.0428931
0.0382391 0.0522927 0.0435645
0.0418097 0.0541848 0.0440223
0.0539559 0.0566262 0.0440833
0.0766613 0.0600137 0.0429694
0.0958419 0.0645457 0.0420996
0.117647 0.0679942 0.0397803
0.144747 0.0699168 0.0362707
0.172656 0.070985 0.0317235
0.197101 0.0718853 0.0229801
0.219959 0.0732891 0.0120241
0.240879 0.0745556 0.00140383
0.263706 0.074876 0.000640879
0.287816 0.0745861 0
0.314717 0.071809 0
0.341451 0.0668498 0
0.368048 0.0598306 0
0.390173 0.0510567 0
0.405081 0.0426795 0
0.414694 0.0197452 0
0.436225 0.00131228 0
0.457725 0.000579843 0
0.479011 0 0
0.498634 0 0
0.517479 0 0
0.533196 0 0
0.548196 0 0
0.56025 0 0
0.570489 0 0
0.579492 0 0
0.586725 0 0
0.00662242 0.0566873 0.0435492
0.00709545 0.0562448 0.0434424
0.0143893 0.0572366 0.0446174
0.031342 0.0594492 0.0451514
0.0366369 0.0619211 0.0457465
0.0465248 0.0649119 0.0462501
0.0742199 0.0687724 0.0451362
0.0964981 0.0737469 0.0437476
0.11986 0.0778515 0.0415351
0.149218 0.0805219 0.0377966
0.18027 0.082414 0.0320439
0.206912 0.0837415 0.0225681
0.231815 0.0849317 0.0114595
0.254383 0.0856031 0.00148013
0.279835 0.086656 0.00062562
0.307805 0.0871443 0
0.338338 0.0862135 0
0.36939 0.0839704 0
0.400351 0.0800793 0
0.426322 0.0739452 0
0.446082 0.0663157 0
0.46006 0.0522621 0
0.470771 0.0273136 0
0.476173 0.00474556 0
0.486427 0 0
0.506203 0 0
0.524254 0 0
0.540169 0 0
0.554452 0 0
0.565942 0 0
0.576288 0 0
0.584573 0 0
0.592248 0 0
0.000106813 0.066743 0.0464942
0.000106813 0.0666056 0.0464485
0.000427253 0.0669261 0.0466011
0.0068513 0.0688945 0.0476692
0.0236515 0.0716411 0.0480659
0.034638 0.0754406 0.0487831
0.0672313 0.0805829 0.0484321
0.0948959 0.0871595 0.0465553
0.119905 0.0929427 0.0439002
0.151614 0.0972305 0.0399634
0.185931 0.100526 0.0330358
0.215946 0.103807 0.0188602
0.243351 0.107012 0.00851453
0.267948 0.10988 0.000640879
0.296132 0.112306 0.000259403
0.327077 0.114076 0
0.360647 0.114595 0
0.394858 0.113634 0
0.42855 0.110735 0
0.458122 0.104677 0
0.480613 0.0963607 0
0.49865 0.085893 0
0.514153 0.0733196 0
0.526741 0.0540169 0
0.535348 0.0204776 0
0.539925 9.15541e-05 0
0.532708 0 0
0.545159 0 0
0.558679 0 0
0.570275 0 0
0.580392 0 0
0.588678 0 0
0.596887 0 0
0 0.0775769 0.0501411
0 0.0776226 0.0501564
0 0.078172 0.0503548
0 0.0795453 0.0509957
0 0.0817273 0.0519417
0.00949111 0.0859388 0.0522316
0.0478828 0.0916915 0.0522164
0.0905165 0.0994888 0.0507668
0.116258 0.107088 0.0480812
0.15108 0.113176 0.0431983
0.189548 0.117906 0.0368048
0.222171 0.121935 0.0181582
0.251713 0.126146 0.00720226
0.278431 0.130251 0.000244144
0.309178 0.134081 6.10361e-05
0.342504 0.137392 0
0.37821 0.139483 0
0.41532 0.14052 0
0.451865 0.140307 0
0.483787 0.137972 0
0.508614 0.133761 0
0.528634 0.127443 0
0.546273 0.117586 0
0.562203 0.103639 0
0.574258 0.0823835 0
0.583535 0.0513619 0
0.587777 0.0106813 0
0.588312 3.0518e-05 0
0.578485 0 0
0.573541 0 0
0.583322 0 0
0.591882 0 0
0.600534 0 0
0 0.0885481 0.0539712
0 0.0890364 0.0540627
0 0.0901045 0.0542763
0 0.0915084 0.0545663
0 0.0937514 0.0552834
4.57771e-05 0.097673 0.0556191
0.0151369 0.104128 0.055375
0.0798657 0.113085 0.0536049
0.110582 0.122194 0.051133
0.147005 0.129961 0.0456245
0.18909 0.135836 0.0369421
0.225238 0.141238 0.0186465
0.257221 0.146548 0.0061799
0.286564 0.152239 0.000762951
0.319402 0.157244 0
0.35491 0.161746 0
0.393149 0.164904 0
0.432837 0.167208 0
0.471855 0.168124 0
0.507057 0.167086 0
0.533333 0.163775 0
0.555215 0.159533 0
0.575143 0.153872 0
0.593256 0.146166 0
0.607446 0.135058 0
0.620096 0.120272 0
0.626764 0.10103 0
0.63093 0.0591745 0
0.629984 0.0140841 0
0.626734 0 0
0.617334 0 0
0.594919 0 0
0.603403 0 0
0 0.103044 0.0568856
0 0.103609 0.0570077
0 0.104753 0.0572366
0 0.106706 0.0574502
0 0.108919 0.0576486
0 0.112749 0.0585946
0 0.120211 0.0583658
0.0517739 0.129824 0.0552987
0.100923 0.14107 0.0517281
0.139254 0.150744 0.0449378
0.183978 0.158556 0.0313268
0.224842 0.165881 0.015198
0.260243 0.173114 0.00337224
0.292348 0.180331 0.000762951
0.327321 0.186801 0
0.365118 0.192782 0
0.406394 0.197299 0
0.448631 0.200855 0
0.490654 0.203265 0
0.527611 0.203067 0
0.555535 0.200656 0
0.579095 0.196368 0
0.600458 0.191043 0
0.620111 0.183703 0
0.636271 0.173632 0
0.650233 0.161425 0
0.659632 0.149187 0
0.666255 0.135073 0
0.667887 0.116533 0
0.666773 0.0903792 0
0.662165 0.0328985 0
0.656611 0.00251774 0
0.644968 0 0
0 0.120745 0.0587015
0 0.121904 0.058793
0 0.123629 0.0589456
0 0.12575 0.059144
0 0.127962 0.0593423
0 0.129992 0.0595254
0 0.137072 0.0601205
0.011841 0.148455 0.0576028
0.0805676 0.16025 0.0520638
0.125353 0.172259 0.0429694
0.174258 0.182162 0.0257572
0.221012 0.191318 0.00791943
0.260334 0.200504 0
0.295521 0.209094 1.5259e-05
0.333135 0.217029 0
0.373373 0.224338 0
0.417624 0.230365 0
0.462593 0.235523 0
0.506752 0.239109 0
0.545815 0.240604 0
0.575097 0.239689 0
0.600565 0.237568 0
0.622858 0.232593 0
0.643427 0.225544 0
0.661173 0.216251 0
0.675883 0.20441 0
0.686564 0.191135 0
0.694713 0.178027 0
0.698283 0.162158 0
0.699535 0.145617 0
0.697139 0.127352 0
0.692195 0.0977951 0
0.683452 0.0420081 0
0 0.138705 0.0604715
0 0.139895 0.0605936
0 0.141604 0.0607767
0 0.143801 0.0610208
0 0.146014 0.061265
0 0.148013 0.0614786
0 0.151934 0.062089
0 0.163943 0.0602731
0.0376593 0.176425 0.0531014
0.10486 0.190387 0.0424506
0.159182 0.202304 0.0247044
0.213779 0.213397 0.00154116
0.257298 0.22414 0.000198367
0.295979 0.23386 0
0.336767 0.243275 0
0.380056 0.251957 0
0.426673 0.258991 0
0.473747 0.264836 0
0.520378 0.269581 0
0.561578 0.272206 0
0.592447 0.27248 0
0.618997 0.271382 0
0.641886 0.267628 0
0.663813 0.262654 0
0.682292 0.255192 0
0.697795 0.246372 0
0.709926 0.235492 0
0.71873 0.22266 0
0.723857 0.207767 0
0.726665 0.190814 0
0.726574 0.173785 0
0.724224 0.153048 0
0.718761 0.131899 0
0 0.155322 0.0622721
0 0.156634 0.0623789
0 0.158251 0.062501
0 0.160174 0.0626535
0 0.162295 0.0628214
0 0.164218 0.062974
0 0.165728 0.0630961
0 0.176028 0.0619669
0.00196841 0.189731 0.0558633
0.0720378 0.205112 0.0409857
0.140993 0.219699 0.0170138
0.202304 0.232624 0.0024567
0.251133 0.244511 0.00015259
0.294026 0.255528 0
0.338262 0.266712 0
0.384375 0.276493 0
0.433524 0.284794 0
0.483009 0.291936 0
0.53228 0.298054 0
0.575555 0.301946 0
0.60827 0.303685 0
0.635981 0.3037 0
0.660197 0.301274 0
0.683116 0.297917 0
0.702892 0.292256 0
0.719341 0.285542 0
0.733043 0.277577 0
0.742535 0.268116 0
0.749081 0.257191 0
0.753124 0.244282 0
0.754849 0.228534 0
0.754711 0.210025 0
0.751705 0.188449 0
0 0.170382 0.0634623
0 0.171496 0.0635538
0 0.173007 0.0636606
0 0.174823 0.0638132
0 0.176654 0.0639506
0 0.178363 0.0640879
0 0.179889 0.06421
0 0.185473 0.064683
1.5259e-05 0.201068 0.059556
0.020798 0.217502 0.0416419
0.11429 0.234638 0.0158389
0.183948 0.250248 0.00030518
0.240253 0.263966 0
0.28893 0.277317 0
0.336416 0.290105 0
0.385977 0.301488 0
0.437858 0.311589 0
0.490394 0.320439 0
0.542763 0.327916 0
0.588525 0.333303 0
0.622934 0.335882 0
0.651911 0.336706 0
0.677913 0.335637 0
0.701915 0.333303 0
0.722774 0.32932 0
0.740551 0.324681 0
0.755184 0.318669 0
0.765667 0.311315 0
0.774044 0.303456 0
0.77911 0.293339 0
0.782406 0.281666 0
0.783993 0.268482 0
0.783078 0.252735 0
0 0.183902 0.0642405
0 0.18526 0.0641947
0 0.187182 0.0641337
0 0.189334 0.0640726
0 0.191714 0.0639963
0 0.193866 0.0639353
0 0.195666 0.0638743
0 0.197375 0.0638285
0 0.212345 0.0605478
0.00204471 0.230564 0.0450446
0.0643168 0.249683 0.0113527
0.155184 0.268238 0.000198367
0.221942 0.284108 0
0.277607 0.299336 0
0.330846 0.314244 0
0.384878 0.328115 0
0.439429 0.340032 0
0.495506 0.350652 0
0.551507 0.359854 0
0.599527 0.366567 0
0.636103 0.370474 0
0.666773 0.372915 0
0.694133 0.373236 0
0.719356 0.372183 0
0.741558 0.36939 0
0.760357 0.365621 0
0.776272 0.360723 0
0.787671 0.354696 0
0.797299 0.348089 0
0.803769 0.339544 0
0.808759 0.330785 0
0.811597 0.320821 0
0.812787 0.309255 0
0 0.199069 0.0637675
0 0.200763 0.0637217
0 0.202914 0.0636606
0 0.205295 0.0635843
0 0.207782 0.063508
0 0.210163 0.0634318
0 0.212543 0.0631876
0 0.214572 0.062974
0 0.221347 0.0623789
0 0.242512 0.0511177
0.00909438 0.263645 0.0170596
0.10074 0.285817 1.5259e-05
0.190097 0.304479 1.5259e-05
0.257969 0.322255 0
0.319585 0.340047 0
0.378759 0.356802 0
0.437812 0.371328 0
0.497688 0.383978 0
0.557137 0.395041 0
0.608881 0.403571 0
0.647959 0.40882 0
0.680812 0.412619 0
0.709087 0.413535 0
0.735683 0.413474 0
0.759518 0.412024 0
0.779187 0.409125 0
0.796094 0.405203 0
0.808789 0.400946 0
0.819196 0.395346 0
0.82678 0.388724 0
0.833387 0.381537 0
0.837507 0.37319 0
0.840589 0.363775 0
0 0.214191 0.0630045
0 0.216342 0.0627756
0 0.218997 0.0624857
0 0.222049 0.0621653
0 0.224948 0.0618601
0 0.227985 0.0615244
0 0.230518 0.0612497
0 0.23267 0.0610208
0 0.234699 0.0608072
0 0.251255 0.0553597
7.62951e-05 0.275242 0.0211795
0.004654 0.300267 0.000289921
0.141176 0.322042 0
0.229664 0.34287 0
0.302296 0.36379 0
0.368658 0.384039 0
0.432059 0.401099 0
0.496773 0.415946 0
0.560113 0.428672 0
0.615717 0.439002 0
0.658305 0.446235 0
0.692241 0.450797 0
0.722301 0.453193 0
0.750484 0.45449 0
0.775128 0.454093 0
0.795804 0.452461 0
0.814282 0.450813 0
0.827512 0.447669 0
0.839139 0.4439 0
0.847822 0.43859 0
0.855573 0.432441 0
0.860639 0.425238 0
0.865431 0.417777 0
0 0.229892 0.061326
0 0.232288 0.0610666
0 0.235325 0.0607309
0 0.238499 0.0603952
0 0.241657 0.0600595
0 0.24477 0.0594034
0 0.247532 0.0587015
0 0.250034 0.0580453
0 0.252399 0.0574502
0 0.256229 0.0566873
0 0.281895 0.0343023
0.000183108 0.309209 0.000640879
0.0454719 0.335485 0
0.177142 0.360082 0
0.275685 0.384375 0
0.352102 0.407706 0
0.42208 0.427939 0
0.491798 0.44535 0
0.559319 0.460151 0
0.619623 0.472435 0
0.665385 0.480781 0
0.701274 0.486763 0
0.733669 0.490684 0
0.763119 0.493248 0
0.78941 0.494484 0
0.811231 0.494102 0
0.830381 0.493324 0
0.844663 0.491707 0
0.85745 0.489418 0
0.866743 0.485161 0
0.875853 0.481086 0
0.881926 0.475608 0
0.887419 0.469703 0
0 0.245167 0.0593118
0 0.247929 0.0585946
0 0.251225 0.0577401
0 0.254643 0.0568704
0 0.258198 0.0559548
0 0.261479 0.0551003
0 0.264378 0.0543679
0 0.26688 0.0537118
0 0.269245 0.0531014
0 0.271473 0.0525368
0 0.282231 0.0496071
0 0.31223 0.00556954
0 0.34255 0
0.0740978 0.371267 0
0.236576 0.399817 0
0.328313 0.426993 0
0.406867 0.450752 0
0.481483 0.470573 0
0.554025 0.487388 0
0.62034 0.502235 0
0.670222 0.512322 0
0.7084 0.51957 0
0.742718 0.524773 0
0.77409 0.52874 0
0.801495 0.530938 0
0.825147 0.532509 0
0.845396 0.53312 0
0.860471 0.532784 0
0.874617 0.532311 0
0.884855 0.529519 0
0.894347 0.526406 0
0.90164 0.523003 0
0.907866 0.518883 0
0 0.260822 0.0552682
0 0.263844 0.05449
0 0.26714 0.0536507
0 0.270695 0.0527352
0 0.274235 0.0518196
0 0.277684 0.0507057
0 0.280476 0.049485
0 0.282918 0.0484474
0 0.2851 0.0475013
0 0.287037 0.0466468
0 0.289113 0.0457618
0 0.306096 0.0274357
0 0.338811 0
0.000915541 0.374685 0
0.145876 0.40798 0
0.291081 0.440131 0
0.382513 0.468757 0
0.464683 0.49247 0
0.54403 0.512245 0
0.616098 0.528725 0
0.672084 0.541405 0
0.712352 0.549828 0
0.749432 0.556481 0
0.783078 0.562066 0
0.812161 0.565652 0
0.837049 0.56788 0
0.858595 0.56997 0
0.874678 0.570779 0
0.889387 0.570916 0
0.900862 0.569787 0
0.911055 0.567849 0
0.91899 0.565469 0
0.926207 0.563378 0
0 0.275029 0.0516213
0 0.277928 0.0505989
0 0.281086 0.0492256
0 0.284489 0.0477607
0 0.287892 0.0462806
0 0.291173 0.0448615
0 0.293965 0.0436561
0 0.296529 0.0425574
0 0.298711 0.0416114
0 0.300771 0.0407111
0 0.302846 0.039826
0 0.304662 0.0390326
0 0.328099 0.0065919
0 0.369177 0
0.0191196 0.409995 0
0.237797 0.44712 0
0.350637 0.480659 0
0.442725 0.508705 0
0.529137 0.531121 0
0.609003 0.55024 0
0.668818 0.564385 0
0.713634 0.574472 0
0.753399 0.582727 0
0.789258 0.58941 0
0.819364 0.593637 0
0.845945 0.597208 0
0.868757 0.600305 0
0.885878 0.60209 0
0.901518 0.603235 0
0.913725 0.603006 0
0.92462 0.602228 0
0.933288 0.601022 0
0.941115 0.600137 0
0 0.28777 0.0463417
0 0.290684 0.0450752
0 0.293965 0.0436561
0 0.297368 0.0421912
0 0.300893 0.0406653
0 0.304173 0.0392462
0 0.306981 0.0380407
0 0.30927 0.0353857
0 0.311284 0.0326696
0 0.313085 0.0302434
0 0.314885 0.0278019
0 0.316594 0.0255131
0 0.318181 0.0233616
0 0.352285 0.00112917
0 0.402167 0
0.126223 0.446616 0
0.307149 0.486198 0
0.414435 0.519951 0
0.509422 0.546746 0
0.596368 0.568658 0
0.662364 0.585 0
0.712383 0.596841 0
0.755703 0.606729 0
0.793088 0.614359 0
0.825193 0.619638 0
0.853498 0.624094 0
0.877089 0.627894 0
0.895369 0.630594 0
0.912154 0.632822 0
0.924971 0.633188 0
0.936477 0.633158 0
0.945861 0.632883 0
0.953902 0.632715 0
0 0.300526 0.0408179
0 0.303578 0.0395056
0 0.306981 0.0380407
0 0.310002 0.0343938
0 0.313191 0.0300908
0 0.315953 0.0263676
0 0.318502 0.0229343
0 0.320729 0.0199283
0 0.32285 0.0170748
0 0.324865 0.0143435
0 0.32668 0.0119173
0 0.328374 0.00962844
0 0.330068 0.00733959
0 0.331777 0.00505074
0 0.382544 0
0.00918593 0.439963 0
0.236973 0.487312 0
0.376654 0.528664 0
0.483177 0.560555 0
0.579217 0.586007 0
0.652689 0.604578 0
0.709026 0.618647 0
0.755947 0.630259 0
0.795209 0.638712 0
0.829496 0.645167 0
0.859937 0.65098 0
0.884184 0.6551 0
0.903548 0.658534 0
0.921248 0.661616 0
0.934966 0.662669 0
0.946975 0.663264 0
0.957153 0.663966 0
0.965484 0.664561 0
0 0.312657 0.030808
0 0.315419 0.0270848
0 0.318288 0.0232242
0 0.321477 0.0189364
0 0.324559 0.0147707
0 0.327413 0.0109102
0 0.329961 0.00747692
0 0.332296 0.00433356
0 0.334524 0.00132753
0 0.33666 0.00109865
0 0.338567 0.0010071
0 0.340383 0.0009308
0 0.342199 0.000854505
0 0.344213 0.000762951
0 0.351125 0.00062562
0 0.420188 0
0.0923323 0.480934 0
0.32163 0.531243 0
0.448737 0.571572 0
0.556115 0.601419 0
0.639155 0.62298 0
0.702998 0.639506 0
0.753521 0.652766 0
0.795804 0.662562 0
0.832685 0.670329 0
0.865263 0.677012 0
0.890547 0.682063 0
0.911299 0.686107 0
0.929778 0.689677 0
0.94432 0.691417 0
0.957061 0.692821 0
0.967666 0.694041 0
0.976303 0.695171 0
0 0.323919 0.0156405
0 0.32668 0.0119173
0 0.329641 0.00790417
0 0.332937 0.0034638
0 0.336019 0.00111391
0 0.338994 0.000991836
0 0.341665 0.000869764
0 0.344106 0.000762951
0 0.346349 0.000671397
0 0.348684 0.000564584
0 0.350713 0.000488289
0 0.352728 0.000396735
0 0.35465 0.000320439
0 0.356771 0.000213626
0 0.358694 0.000137331
0 0.382376 0
0 0.463584 0
0.224323 0.526238 0
0.401999 0.577157 0
0.524697 0.613657 0
0.619287 0.638941 0
0.6907 0.657877 0
0.747784 0.673243 0
0.794171 0.684718 0
0.833799 0.693599 0
0.868421 0.701213 0
0.895064 0.706844 0
0.917388 0.711498 0
0.936736 0.715709 0
0.95227 0.718181 0
0.96556 0.720012 0
0.976684 0.721813 0
0.985199 0.723293 0
0 0.335164 0.00115969
0 0.337942 0.00103761
0 0.341238 0.000900282
0 0.344427 0.000747692
0 0.347616 0.000610361
0 0.350713 0.000488289
0 0.353475 0.000366217
0 0.356023 0.000259403
0 0.358587 0.000137331
0 0.360922 4.57771e-05
0 0.362966 0
0 0.364843 0
0 0.366918 0
0 0.36878 0
0 0.370764 0
0 0.372732 0
0 0.424506 0
0.0370794 0.510933 0
0.336263 0.57586 0
0.48426 0.62211 0
0.591546 0.651865 0
0.67422 0.674281 0
0.740017 0.692485 0
0.791043 0.705913 0
0.833783 0.716136 0
0.870283 0.724361 0
0.898939 0.730785 0
0.923003 0.736171 0
0.943358 0.740703 0
0.959808 0.743389 0
0.973831 0.74583 0
0.985153 0.747784 0
0.992798 0.749218 0
0 0.346456 0.000671397
0 0.349432 0.000534066
0 0.352728 0.000396735
0 0.356023 0.000259403
0 0.359319 0.000106813
0 0.362478 0
0 0.36524 0
0 0.367697 0
0 0.370169 0
0 0.372335 0
0 0.374411 0
0 0.376486 0
0 0.378653 0
0 0.380621 0
0 0.382589 0
0 0.384665 0
0 0.386633 0
0 0.477699 0
0.20647 0.563531 0
0.431434 0.624231 0
0.556085 0.660441 0
0.653223 0.687022 0
0.728847 0.707912 0
0.785336 0.723156 0
0.83183 0.734569 0
0.870207 0.743267 0
0.901106 0.750103 0
0.927275 0.756268 0
0.948409 0.760967 0
0.965988 0.764187 0
0.980453 0.766827 0
0.992004 0.769177 0
0.99678 0.769848 0
0 0.357839 0.000167849
0 0.360922 4.57771e-05
0 0.364157 0
0 0.367407 0
0 0.370565 0
0 0.373617 0
0 0.376486 0
0 0.379248 0
0 0.381704 0
