luts/teal.cube
LUT_3D_SIZE 9
0.026978 0.0279393 0.0319524
0.0519722 0.034638 0.0354162
0.1084 0.0463569 0.0331579
0.190219 0.0523995 0.0114595
0.273854 0.0532235 0
0.374548 0.0411841 0
0.453285 0.000701915 0
0.522148 0 0
0.563943 0 0
0.0147402 0.0492256 0.0414435
0.0418097 0.0541848 0.0440223
0.117647 0.0679942 0.0397803
0.219959 0.0732891 0.0120241
0.314717 0.071809 0
0.405081 0.0426795 0
0.479011 0 0
0.548196 0 0
0.586725 0 0
0 0.0885481 0.0539712
0 0.0937514 0.0552834
0.110582 0.122194 0.051133
0.257221 0.146548 0.0061799
0.393149 0.164904 0
0.533333 0.163775 0
0.607446 0.135058 0
0.629984 0.0140841 0
0.603403 0 0
0 0.155322 0.0622721
0 0.162295 0.0628214
0.00196841 0.189731 0.0558633
0.251133 0.244511 0.00015259
0.433524 0.284794 0
0.60827 0.303685 0
0.702892 0.292256 0
0.749081 0.257191 0
0.751705 0.188449 0
0 0.214191 0.0630045
0 0.224948 0.0618601
0 0.234699 0.0608072
0.141176 0.322042 0
0.432059 0.401099 0
0.658305 0.446235 0
0.775128 0.454093 0
0.839139 0.4439 0
0.865431 0.417777 0
0 0.275029 0.0516213
0 0.287892 0.0462806
0 0.298711 0.0416114
0 0.328099 0.0065919
0.350637 0.480659 0
0.668818 0.564385 0
0.819364 0.593637 0
0.901518 0.603235 0
0.941115 0.600137 0
0 0.323919 0.0156405
0 0.336019 0.00111391
0 0.346349 0.000671397
0 0.35465 0.000320439
0 0.463584 0
0.619287 0.638941 0
0.833799 0.693599 0
0.936736 0.715709 0
0.985199 0.723293 0
0 0.36878 0
0 0.381704 0
0 0.392096 0
0 0.399481 0
0 0.406561 0
0.448371 0.659266 0
0.820401 0.763272 0
0.956069 0.794812 0
0.999786 0.80351 0
0 0.408423 0
0 0.416953 0
0 0.424414 0
0 0.429343 0
0 0.434318 0
0 0.437964 0
0.716045 0.780118 0
0.95581 0.843626 0
1 0.85333 0
0.0250858 0.0302434 0.0582284
0.0510567 0.037171 0.0559854
0.114809 0.0495918 0.054963
0.201846 0.0532692 0.0436866
0.283742 0.0352789 0.0153506
0.385443 0.0106661 1.5259e-05
0.457557 0.000579843 0
0.526757 0 0
0.568276 0 0
0.00790417 0.0498512 0.0581979
0.0414893 0.0563973 0.0628519
0.126207 0.0705272 0.0616617
0.233204 0.0750744 0.048249
0.32723 0.0573434 0.00823987
0.417807 0.000549325 0
0.490745 0 0
0.554131 0 0
0.591623 0 0
0 0.0912642 0.065568
0 0.101808 0.0728923
0.122042 0.135439 0.0727855
0.276326 0.159976 0.0550698
0.414923 0.170855 0.0018616
0.555062 0.164569 0
0.622751 0.133104 0
0.632303 0.00675975 0
0.608881 0 0
0 0.155413 0.0622873
0 0.166629 0.0657359
0.00999466 0.204639 0.0628367
0.26865 0.259861 0.00546273
0.459495 0.300618 0
0.631861 0.315999 0
0.713603 0.295399 0
0.755428 0.258244 0
0.751812 0.178454 0
0 0.217105 0.0626993
0 0.229755 0.0613413
0 0.239765 0.0602579
0.151461 0.332555 0
0.450065 0.41326 0
0.673869 0.457847 0
0.788754 0.46479 0
0.848386 0.453483 0
0.872312 0.422797 0
0 0.279988 0.0496986
0 0.293721 0.0437629
0 0.30454 0.0390936
0 0.334035 0.00469978
0.36878 0.494148 0
0.688045 0.578058 0
0.835019 0.606516 0
0.911925 0.614908 0
0.950393 0.609964 0
0 0.329015 0.00875868
0 0.341772 0.000869764
0 0.3523 0.000411994
0 0.360815 4.57771e-05
0.00163272 0.475578 0
0.641871 0.654276 0
0.849454 0.707225 0
0.948074 0.728038 0
0.994095 0.733959 0
0 0.374411 0
0 0.387625 0
0 0.397131 0
0 0.404608 0
0 0.410559 0
0.470893 0.671946 0
0.836042 0.773709 0
0.968093 0.804562 0
1 0.809644 0
0 0.412238 0
0 0.420951 0
0 0.427832 0
0 0.433082 0
0 0.437491 0
0 0.441108 0
0.713115 0.784573 0
0.965972 0.851179 0
1 0.857542 0
0.000686656 0.0128176 0.141146
0.0544137 0.0309606 0.131365
0.11693 0.0462196 0.11902
0.207477 0.0499886 0.115602
0.293431 0.0272526 0.106783
0.399603 0 0.0948653
0.48072 0 0.065507
0.548333 0 0.00981155
0.587488 0 0
0 0.0425879 0.125643
0.0278935 0.0494698 0.141817
0.126009 0.0666667 0.132647
0.233707 0.0666819 0.132586
0.329458 0.0285801 0.126711
0.42945 0 0.117937
0.515557 0 0.104738
0.578729 0 0.0710002
0.613886 0 0.0135805
0 0.100908 0.133623
0 0.112123 0.149569
0.11928 0.146914 0.166567
0.282933 0.170184 0.174853
0.428382 0.175555 0.173831
0.56112 0.14934 0.156329
0.624598 0.0589609 0.119844
0.641855 0 0.085893
0.631327 0 0.00604257
0 0.178714 0.136599
0 0.193179 0.157595
3.0518e-05 0.234119 0.174395
0.271183 0.283986 0.180911
0.469474 0.313085 0.176959
0.637919 0.314672 0.151507
0.72372 0.286275 0.0983444
0.76199 0.237079 0.0130159
0.753048 0.149065 0
0 0.242435 0.111086
0 0.262547 0.137758
0 0.278187 0.156634
0.0959182 0.372137 0.148562
0.46331 0.44126 0.101045
0.690135 0.476463 0.00296025
0.812421 0.488045 0
0.870054 0.473747 0
0.877607 0.422827 0
0 0.287556 0.0532845
0 0.311696 0.0673228
0 0.327535 0.0805066
0 0.358175 0.0730297
0.392462 0.526177 0
0.715099 0.603128 0
0.849928 0.618723 0
0.923156 0.625849 0
0.958907 0.617823 0
0 0.334112 0.00189212
0 0.347082 0.000640879
0 0.358053 0.000167849
0 0.366522 0
0.00344854 0.487098 0
0.664591 0.669764 0
0.865934 0.720913 0
0.959899 0.740398 0
0.998734 0.74313 0
0 0.380224 0
0 0.39266 0
0 0.402335 0
0 0.409308 0
0 0.41445 0
0.491066 0.683879 0
0.850446 0.784283 0
0.979248 0.814054 0
1 0.815473 0
0 0.415991 0
0 0.424903 0
0 0.431617 0
0 0.436652 0
0 0.44097 0
0 0.444495 0
0.702525 0.786206 0
0.977325 0.85919 0
1 0.862669 0
0 0 0.234592
0.0453956 0 0.23772
0.130663 0.00148013 0.223667
0.216358 0.005066 0.219944
0.309392 4.57771e-05 0.221775
0.420493 0 0.221668
0.504585 0 0.216968
0.571679 0 0.205966
0.610559 0 0.193896
0 0 0.217273
0.0113069 0 0.230945
0.133822 0 0.235386
0.223255 0.00236515 0.229709
0.333379 1.5259e-05 0.239536
0.453651 0 0.245594
0.541085 0 0.245441
0.602655 0 0.237324
0.638056 0 0.224552
0 0.0829938 0.238682
0 0.0953841 0.263584
0.114183 0.137606 0.304112
0.285924 0.162387 0.304723
0.438132 0.162112 0.313146
0.566567 0.125536 0.306081
0.631327 0.00233463 0.288472
0.621317 0 0.255131
0.657526 0 0.236744
0 0.194247 0.272709
0 0.207202 0.291234
1.5259e-05 0.252857 0.321965
0.268391 0.300221 0.340337
0.483146 0.326848 0.353887
0.651606 0.325048 0.353002
0.734371 0.290455 0.336263
0.762341 0.214862 0.305196
0.736233 3.0518e-05 0.247013
0 0.279316 0.282292
0 0.299199 0.304463
0 0.314977 0.321401
0.0374456 0.412268 0.347707
0.468757 0.481514 0.359548
0.699733 0.510338 0.355245
0.807401 0.50367 0.335607
0.860456 0.476844 0.301152
0.874571 0.410651 0.211856
0 0.351003 0.257893
0 0.371435 0.279667
0 0.386511 0.296941
0 0.414923 0.313939
0.353918 0.570794 0.314885
0.70782 0.637293 0.295674
0.847715 0.650385 0.255451
0.918273 0.643412 0.127962
0.976196 0.641047 0
0 0.386328 0.184131
0 0.403281 0.199329
0 0.417594 0.212192
0 0.427405 0.219883
1.5259e-05 0.541619 0.206455
0.671458 0.699702 0.0033875
0.882506 0.751339 0
0.987228 0.773556 0
1 0.748074 0
0 0.386633 0
0 0.398184 0
0 0.407935 0
0 0.413489 0
0 0.419043 0
0.505608 0.695247 0
0.864958 0.794736 0
0.992218 0.823728 0
1 0.82208 0
0 0.420829 0
0 0.429129 0
0 0.436011 0
0 0.440681 0
0 0.444907 0
0 0.448264 0
0.674235 0.783642 0
0.987167 0.86775 0
1 0.867964 0
0 0 0.296651
0.0158846 0 0.304814
0.146975 0 0.308125
0.231769 0 0.300618
0.324712 0 0.302708
0.438468 0 0.308095
0.523781 0 0.311604
0.591562 0 0.312016
0.628931 0 0.311482
0 0 0.286839
9.15541e-05 0 0.300511
0.144213 0 0.320439
0.242603 0 0.317647
0.352972 0 0.325551
0.474708 0 0.338949
0.562356 0 0.345525
0.622095 0 0.347433
0.658137 0 0.347311
0 1.5259e-05 0.30103
0 0.00102235 0.322576
0.124178 0.049958 0.367193
0.285328 0.0810407 0.387732
0.428367 0.0854047 0.39501
0.554025 0 0.395193
0.585809 0 0.367956
0.641443 0 0.371267
0.679072 0 0.370077
0 0.176028 0.362081
0 0.188663 0.383856
0 0.233982 0.429679
0.262181 0.279591 0.463783
0.48835 0.309346 0.473335
0.651759 0.297353 0.480339
0.728191 0.244739 0.469718
0.743069 0.10692 0.440284
0.689967 0 0.377264
0 0.290455 0.398306
0 0.312093 0.424338
0 0.326848 0.443824
0.0158846 0.427939 0.487861
0.471321 0.495338 0.513726
0.705104 0.52137 0.526543
0.811215 0.512612 0.5243
0.861082 0.480613 0.514199
0.868711 0.393774 0.482353
0 0.382101 0.410376
0 0.403052 0.435615
0 0.417502 0.454719
0 0.438956 0.476387
0.321004 0.607462 0.515602
0.710658 0.674159 0.533867
0.849088 0.687694 0.533516
0.91812 0.684215 0.523629
0.947799 0.654505 0.484489
0 0.434943 0.387869
0 0.454185 0.41442
0 0.469596 0.436072
0 0.480705 0.45272
0 0.599527 0.495872
0.657816 0.754986 0.503258
0.854505 0.787594 0.498207
0.94406 0.794064 0.476081
0.984848 0.780346 0.394995
0 0.469184 0.330526
0 0.48632 0.359945
0 0.499504 0.384253
0 0.508598 0.401511
0 0.516045 0.411627
0.412894 0.748974 0.412024
0.830304 0.826032 0.366018
0.962905 0.834089 0.233433
1 0.838651 0
0 0.467063 0.192187
0 0.470329 0.177661
0 0.463355 0.11545
0 0.449332 0
0 0.448051 0
0 0.451621 0
0.618418 0.771878 0
0.992508 0.873304 0
1 0.872312 0
0 0 0.3505
0 0 0.360876
0.148928 0 0.371664
0.244785 0 0.364767
0.338949 0 0.362081
0.450752 0 0.36878
0.536355 0 0.374838
0.604227 0 0.379187
0.641657 0 0.383948
0 0 0.343145
0 0 0.354665
0.137819 0 0.380285
0.257877 0 0.385931
0.371008 0 0.387854
0.48806 0 0.400244
0.575647 0 0.409567
0.634638 0 0.416083
0.671855 0 0.421332
0 0 0.328817
0 0 0.343664
0.101198 0 0.381003
0.258228 0 0.405753
0.393866 0 0.40856
0.511696 0 0.420279
0.598749 0 0.431708
0.654261 0 0.439246
0.692653 0 0.444205
0 0.117617 0.408637
0 0.123095 0.430243
0 0.152255 0.472938
0.258045 0.203265 0.515358
0.494606 0.226566 0.535912
0.637934 0.224903 0.537575
0.703975 0.126543 0.521737
0.719265 0 0.488396
0.703166 0 0.453605
0 0.284718 0.471122
0 0.304128 0.495552
0 0.319448 0.515862
6.10361e-05 0.411353 0.573312
0.466484 0.476127 0.609064
0.704921 0.506554 0.613184
0.809171 0.49369 0.615015
0.854871 0.449714 0.608591
0.848386 0.323018 0.574609
0 0.389654 0.4963
0 0.410941 0.521935
0 0.426673 0.542107
0 0.438376 0.556634
0.297841 0.617441 0.614572
0.710826 0.68307 0.642222
0.849378 0.695903 0.649302
0.916594 0.68864 0.648859
0.942626 0.651102 0.632563
0 0.455467 0.496742
0 0.472663 0.522133
0 0.487617 0.54435
0 0.499153 0.561502
0 0.61442 0.614649
0.653376 0.775341 0.641123
0.851484 0.807263 0.648997
0.940948 0.814099 0.646189
0.978241 0.804593 0.623163
0 0.501045 0.480613
0 0.518227 0.510719
0 0.530404 0.535668
0 0.538262 0.551415
0 0.545724 0.564767
0.338735 0.777798 0.608606
0.81706 0.861585 0.614542
0.951934 0.879744 0.594888
0.998779 0.877577 0.521782
0 0.526986 0.452094
0 0.537621 0.46952
0 0.54342 0.476631
0 0.546242 0.474525
0 0.546517 0.461311
0 0.541939 0.427787
0.471183 0.781399 0.347829
0.994644 0.886076 0
1 0.874647 0
0 0 0.396735
0 0 0.40412
0.1346 0 0.424048
0.252247 0 0.426261
0.356359 0 0.421988
0.464515 0 0.426947
0.547982 0 0.432517
0.615457 0 0.439933
0.652781 0 0.447105
0 0 0.391501
0 0 0.39823
0.115297 0 0.429587
0.261891 0 0.446571
0.392325 0 0.450446
0.5028 0 0.457145
0.586877 0 0.465812
0.645838 0 0.474754
0.683955 0 0.48275
0 0 0.382269
0 0 0.395026
0.069749 0 0.428748
0.255283 0 0.461921
0.41854 0 0.475868
0.528634 0 0.479301
0.611154 0 0.488975
0.665751 0 0.497765
0.705074 0 0.505974
0 0 0.422126
0 0 0.432883
1.5259e-05 0 0.444236
0.217594 0 0.467338
0.41416 0 0.487724
0.592004 0 0.536828
0.635721 0 0.50956
0.677058 0 0.509407
0.715831 0 0.516991
0 0.25037 0.523842
0 0.267659 0.548363
0 0.278035 0.569284
0 0.342596 0.627222
0.45362 0.408316 0.668482
0.703044 0.43154 0.682048
0.798047 0.436225 0.678264
0.835996 0.370123 0.666819
0.79173 0.0194247 0.596048
0 0.386847 0.567117
0 0.406271 0.589151
0 0.424903 0.610025
0 0.435798 0.624964
0.165591 0.600656 0.6916
0.705516 0.670588 0.737484
0.847059 0.686625 0.734356
0.913695 0.673625 0.7364
0.93193 0.609491 0.723659
0 0.463004 0.582193
0 0.481987 0.606104
0 0.497246 0.625696
0 0.508583 0.640879
0 0.612604 0.696345
0.647929 0.783749 0.736385
0.850324 0.814542 0.749767
0.939895 0.820066 0.753429
0.973877 0.805951 0.745861
0 0.518837 0.587808
0 0.534661 0.61355
0 0.545632 0.634058
0 0.552895 0.648356
0 0.559716 0.660471
0.237675 0.788296 0.719356
0.809354 0.879454 0.743816
0.948165 0.899428 0.742473
0.992447 0.903624 0.723812
0 0.55314 0.593347
0 0.563409 0.612833
0 0.570626 0.626307
0 0.574472 0.633387
0 0.577493 0.635981
0 0.579934 0.634363
0.163821 0.803738 0.666957
0.935485 0.921309 0.650904
0.999969 0.915068 0.534981
0 0 0.427665
0 0 0.429328
0.105074 0 0.458076
0.250385 0 0.473259
0.372 0 0.477104
0.479438 0 0.48043
0.560433 0 0.484657
0.626169 0 0.493339
0.662928 0 0.500664
0 0 0.425864
0 0 0.429053
0.0758526 0 0.459648
0.255024 0 0.488548
0.409476 0 0.504433
0.51957 0 0.51043
0.599786 0 0.516289
0.655467 0 0.524239
0.694728 0 0.533257
0 0 0.42266
0 0 0.431067
0.000488289 0 0.457267
0.244236 0 0.499321
0.431586 0 0.525048
0.548486 0 0.53196
0.624552 0 0.536461
0.676219 0 0.543938
0.715496 0 0.554116
0 0 0.413977
0 0 0.426352
0 0 0.438758
0.189319 0 0.491585
0.417456 0 0.531594
0.560876 0 0.545739
0.635187 0 0.547387
0.687938 0 0.554849
0.726574 0 0.565179
0 0.145785 0.534646
0 0.146548 0.551354
0 0.132113 0.560189
0 0.158389 0.593805
0.415244 0.187259 0.644358
0.636698 0.110033 0.653788
0.752346 0.234791 0.682246
0.770489 0.00225834 0.649622
0.738552 0 0.577661
0 0.361212 0.617075
0 0.382345 0.6383
0 0.398642 0.657328
0 0.408576 0.672267
0.0152438 0.545281 0.740322
0.693751 0.607462 0.789395
0.842557 0.621897 0.793729
0.903136 0.615244 0.790112
0.89781 0.45449 0.761608
0 0.464942 0.647242
0 0.482307 0.668147
0 0.497993 0.686275
0 0.508309 0.699458
0 0.547982 0.730251
0.60174 0.771862 0.806531
0.846555 0.799374 0.830518
0.937682 0.806973 0.826963
0.967803 0.776715 0.828504
0 0.528145 0.662898
0 0.542077 0.6851
0 0.553811 0.702296
0 0.562249 0.716335
0 0.568566 0.726543
0.0779736 0.78526 0.794507
0.801694 0.888197 0.831037
0.94638 0.908629 0.839658
0.988998 0.914031 0.842268
0 0.566308 0.678233
0 0.575311 0.69659
0 0.580987 0.710491
0 0.586496 0.722606
0 0.591775 0.733288
0 0.59585 0.740368
0 0.765209 0.798795
0.926131 0.943877 0.830381
0.993774 0.952728 0.821515
0 0 0.445533
0 0 0.446494
0.0661021 0 0.472847
0.244205 0 0.498436
0.383673 0 0.512673
0.493797 0 0.521141
0.574075 0 0.527276
0.634806 0 0.533135
0.671611 0 0.540459
0 0 0.445121
0 0 0.449027
0.0169528 0 0.474205
0.242344 0 0.511238
0.416815 0 0.536202
0.53463 0 0.548592
0.613138 0 0.555245
0.664942 0 0.561257
0.70367 0 0.570474
0 0 0.44506
0 0 0.453849
0 0 0.475517
0.221118 0 0.520729
0.432685 0 0.557443
0.565408 0 0.573434
0.638422 0 0.577005
0.688487 0 0.584268
0.72604 0 0.594247
0 0 0.441855
0 0 0.452705
0 0 0.462501
0.13817 0 0.510475
0.409491 0 0.562737
0.574639 0 0.587137
0.651301 0 0.591714
0.70074 0 0.596094
0.737743 0 0.607401
0 0 0.485557
0 0 0.449516
0 0 0.461067
0 0 0.471458
0.326574 0 0.552758
0.561715 0 0.59324
0.658747 0 0.603571
0.712245 0 0.608103
0.750042 0 0.621073
0 0.304158 0.63563
0 0.318135 0.653971
0 0.319677 0.668956
0 0.291676 0.668711
0.0027924 0.342596 0.71368
0.620203 0.247044 0.730007
0.723781 1.5259e-05 0.691875
0.800366 0.118563 0.723766
0.759518 0 0.631998
0 0.453071 0.685878
0 0.46949 0.706065
0 0.482261 0.723339
0 0.48925 0.736522
0 0.491081 0.748028
0.529885 0.701244 0.843198
0.830213 0.699962 0.864256
0.924285 0.685176 0.864683
0.936873 0.613931 0.850095
0 0.529778 0.711711
0 0.542733 0.732143
0 0.553262 0.747341
0 0.56112 0.759518
0 0.569879 0.772198
0 0.71902 0.83949
0.755444 0.879683 0.886976
0.943633 0.898543 0.903014
0.986603 0.904463 0.902449
0 0.572686 0.733547
0 0.581994 0.75256
0 0.589181 0.766384
0 0.593774 0.776638
0 0.598581 0.787076
0 0.60235 0.7944
0 0.604181 0.798474
0.920821 0.951171 0.904906
0.99086 0.961669 0.909102
