luts/teal.cube
LUT_3D_SIZE 5
0.026978 0.0279393 0.0319524
0.1084 0.0463569 0.0331579
0.273854 0.0532235 0
0.453285 0.000701915 0
0.563943 0 0
0 0.0885481 0.0539712
0.110582 0.122194 0.051133
0.393149 0.164904 0
0.607446 0.135058 0
0.603403 0 0
0 0.214191 0.0630045
0 0.234699 0.0608072
0.432059 0.401099 0
0.775128 0.454093 0
0.865431 0.417777 0
0 0.323919 0.0156405
0 0.346349 0.000671397
0 0.463584 0
0.833799 0.693599 0
0.985199 0.723293 0
0 0.408423 0
0 0.424414 0
0 0.434318 0
0.716045 0.780118 0
1 0.85333 0
0.000686656 0.0128176 0.141146
0.11693 0.0462196 0.11902
0.293431 0.0272526 0.106783
0.48072 0 0.065507
0.587488 0 0
0 0.100908 0.133623
0.11928 0.146914 0.166567
0.428382 0.175555 0.173831
0.624598 0.0589609 0.119844
0.631327 0 0.00604257
0 0.242435 0.111086
0 0.278187 0.156634
0.46331 0.44126 0.101045
0.812421 0.488045 0
0.877607 0.422827 0
0 0.334112 0.00189212
0 0.358053 0.000167849
0.00344854 0.487098 0
0.865934 0.720913 0
0.998734 0.74313 0
0 0.415991 0
0 0.431617 0
0 0.44097 0
0.702525 0.786206 0
1 0.862669 0
0 0 0.296651
0.146975 0 0.308125
0.324712 0 0.302708
0.523781 0 0.311604
0.628931 0 0.311482
0 1.5259e-05 0.30103
0.124178 0.049958 0.367193
0.428367 0.0854047 0.39501
0.585809 0 0.367956
0.679072 0 0.370077
0 0.290455 0.398306
0 0.326848 0.443824
0.471321 0.495338 0.513726
0.811215 0.512612 0.5243
0.868711 0.393774 0.482353
0 0.434943 0.387869
0 0.469596 0.436072
0 0.599527 0.495872
0.854505 0.787594 0.498207
0.984848 0.780346 0.394995
0 0.467063 0.192187
0 0.463355 0.11545
0 0.448051 0
0.618418 0.771878 0
1 0.872312 0
0 0 0.396735
0.1346 0 0.424048
0.356359 0 0.421988
0.547982 0 0.432517
0.652781 0 0.447105
0 0 0.382269
0.069749 0 0.428748
0.41854 0 0.475868
0.611154 0 0.488975
0.705074 0 0.505974
0 0.25037 0.523842
0 0.278035 0.569284
0.45362 0.408316 0.668482
0.798047 0.436225 0.678264
0.79173 0.0194247 0.596048
0 0.463004 0.582193
0 0.497246 0.625696
0 0.612604 0.696345
0.850324 0.814542 0.749767
0.973877 0.805951 0.745861
0 0.55314 0.593347
0 0.570626 0.626307
0 0.577493 0.635981
0.163821 0.803738 0.666957
0.999969 0.915068 0.534981
0 0 0.445533
0.0661021 0 0.472847
0.383673 0 0.512673
0.574075 0 0.527276
0.671611 0 0.540459
0 0 0.44506
0 0 0.475517
0.432685 0 0.557443
0.638422 0 0.577005
0.72604 0 0.594247
0 0 0.485557
0 0 0.461067
0.326574 0 0.552758
0.658747 0 0.603571
0.750042 0 0.621073
0 0.453071 0.685878
0 0.482261 0.723339
0 0.491081 0.748028
0.830213 0.699962 0.864256
0.936873 0.613931 0.850095
0 0.572686 0.733547
0 0.589181 0.766384
0 0.598581 0.787076
0 0.604181 0.798474
0.99086 0.961669 0.909102
